/* XPM */
static const char *b0ae89c132d64a2c8b12a6466c522e8016u6IrXAJrrPEpEz[] = {
/* columns rows colors chars-per-pixel */
"256 256 192 2 ",
"   c None",
".  c #061516",
"X  c #05171F",
"o  c #041C1E",
"O  c #0A1A1E",
"+  c #181B1E",
"@  c #06201F",
"#  c #051720",
"$  c #061C24",
"%  c #0A1C25",
"&  c #071C29",
"*  c #0E1E2D",
"=  c #151724",
"-  c #1B1725",
";  c #131C26",
":  c #1A1C26",
">  c #101E2E",
",  c #1C1D2A",
"<  c #071F30",
"1  c #0E1E30",
"2  c #121E30",
"3  c #181E32",
"4  c #231F26",
"5  c #271729",
"6  c #231D2C",
"7  c #2B1D2D",
"8  c #391927",
"9  c #331D2D",
"0  c #3A1E2D",
"q  c #271E31",
"w  c #2C1E31",
"e  c #341D31",
"r  c #3B1E33",
"t  c #3C1E39",
"y  c #032127",
"u  c #0C2025",
"i  c #07212A",
"p  c #0E202E",
"a  c #142026",
"s  c #1D2027",
"d  c #11202E",
"f  c #1B212A",
"g  c #0E2030",
"h  c #122030",
"j  c #23202D",
"k  c #2B212E",
"l  c #32202E",
"z  c #3A202F",
"x  c #242130",
"c  c #2D2131",
"v  c #342132",
"b  c #3C2135",
"n  c #3A2138",
"m  c #431E35",
"M  c #4B1D33",
"N  c #451E39",
"B  c #4C1E3A",
"V  c #541E3B",
"C  c #5C1E3D",
"Z  c #611E3E",
"A  c #432136",
"S  c #4D2136",
"D  c #46213A",
"F  c #4D223B",
"G  c #572135",
"H  c #53223C",
"J  c #5B223D",
"K  c #5B2234",
"L  c #62223E",
"P  c #68223F",
"I  c #5F1E43",
"U  c #671F44",
"Y  c #751E46",
"T  c #7C1F45",
"R  c #7B1F49",
"E  c #4F2041",
"W  c #542243",
"Q  c #5C2342",
"!  c #632243",
"~  c #6C2244",
"^  c #6D2449",
"/  c #732346",
"(  c #7C2446",
")  c #74234A",
"_  c #7A244B",
"`  c #7D284D",
"'  c #7D2552",
"]  c #742850",
"[  c #7A2A53",
"{  c #84244C",
"}  c #8B254D",
"|  c #81284C",
" . c #94224F",
".. c #852452",
"X. c #8C2553",
"o. c #842852",
"O. c #8D2853",
"+. c #932454",
"@. c #9B2555",
"#. c #952955",
"$. c #9C2955",
"%. c #942659",
"&. c #9A265A",
"*. c #95295A",
"=. c #9C295C",
"-. c #A32757",
";. c #AD2657",
":. c #A4265B",
">. c #AB255C",
",. c #A4295C",
"<. c #AA295E",
"1. c #B3255C",
"2. c #B8275E",
"3. c #B32A5E",
"4. c #A62661",
"5. c #AD2661",
"6. c #A52A61",
"7. c #AD2B62",
"8. c #B42762",
"9. c #BC2663",
"0. c #B42A63",
"q. c #BC2A64",
"w. c #B12869",
"e. c #BB2C69",
"r. c #BF336C",
"t. c #C2275F",
"y. c #C62566",
"u. c #CB2764",
"i. c #C32A66",
"p. c #CA2A66",
"a. c #C72569",
"s. c #CE2769",
"d. c #C42B6B",
"f. c #CB2B6B",
"g. c #D12A65",
"h. c #D92966",
"j. c #DA276B",
"k. c #D32B6C",
"l. c #DB2D6E",
"z. c #D4306D",
"x. c #CD2E73",
"c. c #D42B71",
"v. c #DD2D72",
"b. c #DC2E79",
"n. c #DD3173",
"m. c #DD3079",
"M. c #D33274",
"N. c #E22B6E",
"B. c #EE2C6D",
"V. c #F42D6C",
"C. c #F42C6F",
"Z. c #F42D6F",
"A. c #F52D6F",
"S. c #F42E6F",
"D. c #F62D6E",
"F. c #F32D6E",
"G. c #F82A6F",
"H. c #F3306F",
"J. c #E52E77",
"K. c #E42C73",
"L. c #EB2E75",
"P. c #ED2D73",
"I. c #E52E79",
"U. c #EC2E78",
"Y. c #EB2673",
"T. c #F52B71",
"R. c #F32D70",
"E. c #F32E72",
"W. c #F42D70",
"Q. c #F52C70",
"!. c #F72D70",
"~. c #F42E70",
"^. c #F62D72",
"/. c #F22E76",
"(. c #F42D71",
"). c #F92B76",
"_. c #F92D75",
"`. c #F52E7A",
"'. c #F92E7A",
"]. c #F92D7C",
"[. c #FA2E7A",
"{. c #E33175",
"}. c #EC3175",
"|. c #E43179",
" X c #ED317A",
".X c #F43073",
"XX c #F83076",
"oX c #F5317A",
"OX c #FA317B",
"+X c #F52E81",
"@X c #FC2F82",
"#X c #FA3281",
/* pixels */
"                                                                                                                                                                                                                                                                                                                                                                                                                                                                                                                                ",
"                                                                                                                                                                                                                                                                                                                                                                                                                                                                                                                                ",
"                                                                                                                                                                                                                                                                                                                                                                                                                                                                                                                                ",
"                                                                                                                                                                                                                                                                                                                                                                            * > >                                                                                                                                               ",
"                                                                                                                                                                                                                                                                                                                                                                  > * > * > > > > > > * * >                                                                                                                                     ",
"                                                                                                                                                                                                                                                                                                                                                              > > * > > * > * > > > > > * > > > >                                                                                                                               ",
"                                                                                                                                                                                                                                                                                                                                                          > > * > > * > > > > * > > > > > > > > > > *                                                                                                                           ",
"                                                                                                                                                                                                                                                                                                                                                      > > * > > * > > * > > > > > > > * * > > > > > > > >                                                                                                                       ",
"                                                                                                                                                                                                                                                                                                                                                  > > > * > > > > > > > > > > > > > > > > > > > > > > > > > >                                                                                                                   ",
"                                                                                                                                                                                                                                                                                                                                                > > > > > * > > > > > > > > > > * > * > * * > > * > * > > > > >                                                                                                                 ",
"                                                                                                                                                                                                                                                                                                                                              > > > > > > > > > > > > > > > > > > > * > * * * * * > * > > > > > >                                                                                                               ",
"                                                                                                                                                                                                                                                                                                                                            * * * * > > * > > > > > > > * > > > > > > > * * * > > > * > * > > > > >                                                                                                             ",
"                                                                                                                                                                                                                                                                                                                                          > > > > > > > > > * > > > > * > * * > * > > > > * * > > > > > > > > > > > >                                                                                                           ",
"                                                                                                                                                                                                                                                                                                                                        > > > > > > > > > > > > > > p > * % u % > $ $ & > > > > > > > > > > > > > > > >                                                                                                         ",
"                                                                                                                                                                                                                                                                                                                                        > > > > > * * > > > > > > p % 4 ! =.p.N.d.n.O.H ; & * 2 > > * * > > > > > > > > >                                                                                                       ",
"                                                                                                                                                                                                                                                                                                                                      > > > > > > * * * > * > * % : -.P.[.R.F.R.C.R..X].x.o., & * h * > * * > > > > > > >                                                                                                       ",
"                                                                                                                                                                                                                                                                                                                                    > > > > > > > * > > > > % : @.].).^.^.F.F.F.F.F.C.C.F.[.J.O.: * * * > 2 > > > > > > > >                                                                                                     ",
"                                                                                                                                                                                                                                                                                                                                    > > > > > > * * > > > * e i.[.^.^.^.F.F.F.F.F.A.F.A.R.F.^.^.s.e * * * * > > > > > > * >                                                                                                     ",
"                                                                                                                                                                                                                                                                                                                                    > > > > > > * * > > * e i.`.^.C.A.^.F.A.F.F.A.A.F.F.F.^.A.B./.c.r * * * > > > > > > > > >                                                                                                   ",
"                                                                                                                                                                                                                                                                                                                                  * > > > > > > > > > > 6 ,._.C.F.^.^.^.A.A.A.F.R.R.F.A.F.A.F.F.F.R.f.6 % 2 > > > > > > > > >                                                                                                   ",
"                                                                                                                                                                                                                                                                                                                                  > * > > > > * > * > % @.XXF.F.A.A.^.R.A.A.^.F.A.F.A.^.A.^.F.F.A.F.^.+.> * * > > > > > > > >                                                                                                   ",
"                                                                                                                                                                                                                                                                                                                                  > > > > > * > > * > e K.F.A.^.A.A.A.^.F.F.F.R.F.F.A.F.^.A.^.F.F.C.F./.^ * > > > > > > > > > >                                                                                                 ",
"                                                                                                                                                                                                                                                                                                                                  > > > > * > > * > % ) ^.B.^.^.^.A.^.A.A.C.^.)./.'.B.B.F.A.A.F.F.F.A.F.J.7 > > > > > > > > > >                                                                                                 ",
"                                                                                                                                                                                                                                                                                                                                > > > > * > > * * > > N.^.F.^.^.^.A.A.A.!.P.,./ ~ +.#.P.R.F.F.A.F.A.^.^.[.` * 2 > > > > > > > > >                                                                                               ",
"                                                                                                                                                                                                                                                                                                                                > > > > > * > 1 * > , l.F.A.R.F.R.R.C.!.v.V o % * % ; m ].).F.F.F.A.R.^..Xz.= > > > > > > > > > >                                                                                               ",
"                                                                                                                                                                                                                                                                                                                                > > > > > d > > * > x oXF.A.A.A.A.!.F.].: % * > * > 2 % V [.F.A.^.^.^.^.^.P.B * 2 > > > > > > > >                                                                                               ",
"                                                                                                                                                                                                                                                                                                                                * > > > > > > d > > V oXF.F.F.F.F.A.^.:.& h p > > > 1 > = 9.^.A..X.X.X^.^.XXX.> h > > > > > > > > >                                                                                             ",
"                                                                                                                                                                                                                                                                                                                                > > > > > > * > > p A '.^.A.F.R.F.A.^.:.$ 2 > 2 > > > > * m `.G.F..XA.^.R.A.n.% * > > > > > > > > >                                                                                             ",
"                                                                                                                                                                                                                                                                                                                                * > * > > > > > * * 9 [.F.A.F.A.^.A.R.<.= > > > > > > d * % p._..X.XF.^.^.B.P.e * > > > > > > > > >                                                                                             ",
"                                                                                                                                                                                                                                                                                                                                * * > > > > > > * > v `.A.^.A.R.A.F.F.{.$ * p * > > > > p % &.^.A..X^.^.A.R.[.r * > > > > > > > > >                                                                                             ",
"                                                                                                                                                                                                                                                                                                                                > > > > > > > > > * % c.R.^..XA.A.A.^./.r p > * > * > > > & ! XXH.^.F.A.F.F.XX^ % p * > * > > > > >                                                                                             ",
"                                                                                                                                                                                                                                                                                                                                > > > > > > > > * > > 0.XX.XA.F.^.^.F.XX! * > > > > > > > * w ].P.^.F.A.R.F.R.X.% > > * > > > > > >                                                                                             ",
"                                                                                                                                                                                                                                                                                                                                  > > > > > > * > * % +.'.^.A.F.F.^.^.`.X.& > * > > * > 2 1 7 K.R.^.A.A.R.F.XXi.% > > * > > > > > >                                                                                             ",
"                                                                                                                                                                                                                                                                                                                                  > > > > > > > * p * ` OXA.A.F.F.F.A.^.e.; h * > > * g p p ; K.^.A.A.^.^.R./.8.% 2 p > > > > > > > >                                                                                           ",
"                                                                                                                                                                                                                                                                                                                                  > > > > * > d * 2 > 9 /.F.A.A.F.A.^.^.U.4 * * * * * * p g 4 v.^.^.A.^.A.A.^.0.% 1 * * > > > > > > >                                                                                           ",
"                                                                                                                                                                                                                                                                                                                                  > > > > > > > * 2 > % k.A.F.F.A.A.^.^.'.Q & * * > > > * > $  X^.A.^.A.A.^..Xs.$ > > > > > > > > > >                                                                                           ",
"                                                                                                                                                                                                                                                                                                                      > > > >     > > > > > > > > > > * #.R.A.F.F.F.R.A.^.%.% 2 * > > * * > : q.F.^.^.A.A.F.R.d.% * > > > > > > > > >                                                                                           ",
"                                                                                                                                                                                                                                                                                                              > > > > > > > > > > * > > > > > > > > > * / XXR.R.A.A.^.^.A.b.; 1 > > > > * > : Y.R.A.A.F.A.F.^.1.% 2 > > * > > > > >                                                                                             ",
"                                                                                                                                                                                                                                                                                                        > > > > > > > > > > > > > > > > > > > > > > * * A oXF.^.^.^.A.R.^./.9 * * > > > > > , b.R.A.A.R.A.A.^.<.$ > > > > > > > > >                               > >                                                           ",
"                                                                                                                                                                                                                                                                                                      > > > * > * * > > > > > > > > > > * > > > 2 d > > ; k.A.R.F.^.A.R.A.XX^ * * > > > > 1 : `.F.^.A.^.F.F.`.:.$ > > > > > > > > >               > > > > > > > > > * > > * > >                                                 ",
"                                                                                                                                                                                                                                                                                                    > * * * * * > > > * * > > > > > > > > > > > > > > * $ q.^.A.F.^.A.F.F._.=.% d * * > * > r oXB.^.F.F.F.B.`.| % > > > > > > > > >           > > > > > > > > > > > * > > > > > > > >                                           ",
"                                                                                                                                                                                                                                                                                                  * > > > > > > > > > > > > * > > > > * > > > > > > > > & _ XX^.^.^.F.F.R..X0.% 2 * * * > * B [.A.^.^.F.F.F.[.! % > > > > > > > > >     > > > > > > > > > > > > > > > > > > > > * > > > >                                       ",
"                                                                                                                                                                                                                                                                                                > > > > > > > > * > > > * > * * > > > > > > > > > > > > p H }.^.A.A.A.A.A.B.I.a p * * * * * / _.H.A.A.F.R.F.`.V * * > > > > > > > > > > > > > > > > > > > > > > > * > > > * > > > > > > > > >                                   ",
"                                                                                                                                                                                                                                                                                              > > > > > > > > > > > * > > * * * > * > > > > > > > * > > > ; P.^.A.A.F.F.F.R.U.: * * * > * $ X.`.F.R.^.A.R.R.oX- * > > * * > > > > > > > > > > > > > > * > > > > > > > * * > > > > > * > > > > > >                               ",
"                                                                                                                                                                                                                                                                                            > > > > > > > > > > > * > * > * * > * > * > > * > > > > > > > % s.R.^.^.^.C.C.F.).H * * > * * % 0.F.A.A.A.R.R.Y.d.6 * * > d * > > > > > > > > > > > > > > > > > > > * > > > > > > > > > > > > > > > > >                             ",
"                                                                                                                                                                                                                                                                                          > * > > > * > > > > * 2 > > * > * 2 1 * * > * > > > > > > * * > $ 8.^.A.F.A.A.A.F.[._ * * * * * s '.R.^.A.A.F.C.XXq.$ 2 > > * * > > > > > > > > > > > > > > > > > > * * * > > > > > > > > > > > > > > > > >                           ",
"                                                                                                                                                                                                                                                                                          > > * * > * > > > * * 1 > * $ > % % % p > > > > > > > > > > 2 p % X..XA.F.A.A.F.F..XX.* > * * * ! _.F.^.^.A.A.F.XXX.& > > > > * > > > > > > > > * > > > > > > * > > * > * > 1 * * * > > > > > > > > > > > > >                         ",
"                                                                                                                                                                                                                                                                                        > > > > > > > > > > * > & a { f.k.n.0.@.m p > * > > > > > > > > p * L '.^.A.A.F.^.F./.<.& d > > $ ! '.F.A.A.A.A.F.XXr & * * > > > > > * > > > > > > d > > > * * * > > > > 2 > * * * * * > > > > > > > > > > > > >                       ",
"                                                                                                                                                                                                                                                                                        > * * > > > > > > * > $ n U.`.^.^.F.P.XX5.r % > > > > > > > * > > * 6 ].R.F.A.F.F.F.^.i.$ 2 > > > 7..XA.F.A.F.F.B.K.6 * * * * > > > > > > > > * > > > > * > > > * % $ ; % , % $ % * * > > * > > > > > > > > > > > >                     ",
"                                                                                                                                                                                                                                                                                        > > > > > > > > > > $ H P.!.R.^.A.A.A.F.^.k.w * 2 > * > > > > > * > l K.F.^.F.R.F.F.^.q.$ h > * $ XXR.^.A.^.A.F.R.g.= 2 * 1 d > > > > > > > * * > > > * * * ; : F { ,.<.`.l.f.>.3.v $ * * * > > > > > > > > > > > > >                   ",
"                                                                                                                                                                                                                                                                                        > > > > > > > > > > H f.!.F.R.A.A.A.F.^.F.^.l.k * d > > > > > * * 2 , P.F..XF.R..XF.^.K.; > * % ~ `.F.R.A.^.^.F.`.( * > > * > > > > > > * * > > > > d % $ 7 X.I.[.`.^.A.).R.R.^._.`.K._ 6 & 2 > > > > > > > > > > > >                   ",
"                                                                                                                                                                                                                                                                                      > > > > > > > > > h % -.'.R.R.^.A.A.A.F.^.^.F.'.;.% p > > > > > > * * 6 v.B.H.A.A.A.^.R.0., > g % X.[.R.R.A.^.A.R.'.9 > * * * > > > > > > * * 2 > > > & H 7.[.`.F.F.A.A.A.A.A.R.^.F.F.F.`.OXo.4 & > > > > > > > > > > * >                 ",
"                                                                                                                                                                                                                                                                                      > > > > > > * > > > % @.`.F._.A.^.^.^.^.^.A.F.C.[.m % > > * > > > > > $ U.!..XF.A.F.F.R.K.X * > , e.}.F.^.F.A.F.F.|.% * * * * * > > > > > > > > * * a &.`.`.V.A.F.F.^.A.A.A.A.^.A.A.F.F.A._.XX,.% % > > > > > > > > * > > >               ",
"                                                                                                                                                                                                                                                                                        > > > > > > > > > * r b.^.A.A.A.^.^.^.F.F.F.C.^.f.6 > p > > > > * p % f.B.R.F.A.A.F.^.p.= 2 % ! `.B.^.A.^.A.F.`.X.* 2 > > > > > > > > > > * > * m z.XXF.R.C.A.R.F.A.^.A.A.A.A.A.A.F.F.F.F.B..XY.r * > > * > > > > > > > >               ",
"                                                                                                                                                                                                                                                                                        > > > > > > > > > * > Q I.`.A.^.A.A.R.F.A.A.^.A.[.~ * 2 2 * > > > > , l.R.A.A.A.A.A.F.m.% > % 0.oXF.A.A.A.A.F.].r * > > * > > > > > > > > * % Q /.^.A.A.A.^.^.C.A.A.F.A.A.^.A.^.A.F.F.F.A.F.V.^.l.z * * * > > > > > > > >               ",
"                                                                                                                                                                                                                                                                                        > * > * > * > > > > > % F [.R.A.A.F.R.A.F.A.F.R.!.v.$ 2 > > > > > * o U.P.A.A.A.^.A.P.g.= > w m.B.A.A.A.A.F.C.4.; > * > > > > > > > > * * $ O.].^.F.A.A.F.A.F.A.C.F.A.A.A.A.A.A.A.A.F.A.A.A.A.F..Xk.> * > > * > > > > > > >             ",
"                                                                                                                                                                                                                                                                                        > > > > > > > > > > > > & H P.F.F.F.^.F.F.F.A.F.^.P.A * * > > * * * , k.P.A.R.F.F.F.A.i.% % ! ].B.A.^.A.A.F.XX' & > > * > > > > > > d > ; X.`.R.R.A.A.A.A.^.F.F.R.^.F.F.A.^.R.F.F.F.A.^.A.A.A.A.A.[.` & > * * > > > > > > >             ",
"                                                                                                                                                                                                                                                                                          > > > > > > > > > * > * $ J  XV.F.F.A.A.A.^.A.F.[.%.* 2 * > > * * > K.F.F.R.A.A.F.`.q.X k e.P.F.A.^.A.A.F.K.m > * > * > > > > * > > ; +.K.F.R.A.A.A.R.^.A.F.F.^.!.`.`.l.s.f.XX^.^.F.A.A.C.A.A.F.F.v.: * > * > > > > > > >             ",
"                                                                                                                                                                                                                                                                                          > > > > > > > > > > > > * $ o.R.F.A.A.A.A.A.A.F.^.q.; d d > > p > A P.F.F.A.F.A.A.^.d.. / #XB.A.A.A.F.A.).0.= 2 * > * > > > > > > % :.P.A.F.^.A.F.A.A.A.F.F.).v.&.S : : o , o ~ t.XXF.F.A.A.A.A.F._.C & p > > > > > > > > >           ",
"                                                                                                                                                                                                                                                                                            > > > > > > > > > > > > > 6 q.!.F.A.A.F.A.A.F.C.K.b > > > 2 > * : OXF.F.A.F.A.F.^.%.+ f./.F.A.A.F.F.F.Y.Q % * > > > * > > > * $ X.[.A.A.A.A.^.A.^.F.R.`.[.$.m O * * 2 > * > * $ N P.C.F.A.A.A.F.^.>.; * > > > > > > > > >           ",
"                                                                                                                                                                                                                                                                                              * > > > > > > > * > > d * Q }.C.A.A.A.A.F.F.C.P.F % d > > > * Z `.F.^.A.F.F.C._.#.M K.C.R.F.A.A.A.R.i.: > * > * > * * > > ; _ [.R.^.^.^.A.A.^.A.!.[.8.D $ * * > * * * > * * * & @._.F.F.A.A.A.C.|.; > > > > > > > > > >           ",
"                                                                                                                                                                                                                                                                                                > > > > > > * > > * > > , ,._.F.H.H.A.F.F.R./...% > > > > * V '.F.F.F.A.F.A.OXr +.'.F.R.F.F.A.A.[.) $ > > > > > > * > * ~ P.B.^.A.^.A.A.^.F.R./.+.6 % > * > > > * > * * * p * L `.C.A.F.^.R.^.[.A > > > > > > > > > >           ",
"                                                                                                                                                                                                                                                                                                > > > > > > > > > * > > * r U.C.F.A.A.A.C.A.R.d.% > > > 2 * X.`.R.A.A.A.F.R.P.P l.B.F.F.F.F.F.F.b.7 > * > > * > p * % J |.F.F.A.A.R.A.^.^.). X) ; > > > * > * * * * > > * > % { ^.!.A.A.A.A.F.XXB > > > > > > > > > >           ",
"                                                                                                                                                                                                                                                                                                  > > > > > > > > > > * * > &.`.F.A.A.A.A.A.F. X% > > > 2 & q._.A.F.A.^.A.^.^.N._.B.A.F.F.F.F.)._ > > > > > * * > % m '.^.F.A.A.A.R.R.R.R.K.S > * * > > > > > > > > > d * 1 o u._.A.A.A.A.A.F.XXe * > > > > > > > > >           ",
"                                                                                                                                                                                                                                                                                                    > > > > > > > > > * p * Q OXF.F.A.A.A.A.A.{.r > 2 > 2 f 7.R.^.F.F.F.R.A.F.F.F.F.A.R.F.F.A.N.> * * > * > * d * v s.R.A.^.A.A.^.^.^.`./.N % 2 > > 2 * * > * * * > > * > * J K.F.A.A.A.F.A.F.U.t * > > > > > > > > >           ",
"                                                                                                                                                                                                                                                                                                      > > > > > > > > > * > 4 k.^.A.^.A.A.A.F.U.v * 2 * > % [.C.A.F.A.F.F.A.F.F.F.A.A.F.F.F._.) * > > > * > 2 * A d.^.F.A.A.^.^.A.^.`.K.V $ d > > > > > > * * * * * > p > e f.A.F.A.A.F.A.A.^.j.: > > > > > > > > > >           ",
"                                                                                                                                                                                                                                                                                                        > > > > > > > > > * % -.`.F.^.F.A.F.R.[.F * * * > J `.B.C.F.F.F.A.F.F.F.F.F.A.A.C.R.oX6 * > 2 > > d & % l.`.B.A.^.A.^.^.A.^.K.^ * > > > > > * > > * * > > > > $ e l._.F.F.A.A.A.A.F.^.+.% > > > > > > > > > >           ",
"                                                                                                                                                                                                                                                                                                        > > > > > > > > > > % 9 ).C.A.F.R.F.F.XX~ i * 2 % R [.C.C.A.F.F.A.F.F.F.A.F.F.A.B./.~ % > * > * * * O f.`.C.F.A.A.^.R.F.P.P.! $ 2 > * > > > > > > * * * > * $ ^ Y.^.A.C.^.A.F.A.A.F.[.N * > > > > > > > > >             ",
"                                                                                                                                                                                                                                                                                                          > > > > * > > > > * = P.A.A.F.A.A.V.[.! * > 2 % X.R.F.F.A.F.F.F.A.A.A.F.A.F.F.R.f.4 2 > * p * * c :.'..XA.^.^.^.^.A.R.oXQ o * > > * > > > > > > * * * % v >._.C.F.A.A.R.^.F.A.F.^.i.% * > > > > > > > > >             ",
"                                                                                                                                                                                                                                                                                                          > > > > > > > > > > > f.A.A.A.F.A.F.`.X.* > * > I.C.C.A.A.A.A.A.F.F.R.A.A.A.F.XXV % > > * > > ; +.XXP.^.^.A.A.A.A.^.@X .$ > * * > d * > > > > * * * : ~ g.).F.A.A.A.A.A.^.F.C.F.Y.U * > > > > * > > > > >             ",
"                                                                                                                                                                                                                                                                                                          > * > > > > > * * p & :..XF.F.^.A.A.XX' $ p * B `.C.C.F.F.F.F.A.A.F.A.A.F.F..XX.& * > * p * $ >.OXF.R.^.A.A.A.A.B./.{ $ > > * * * * * > > * * * = ! s./.R.F.A.C.C.R.F.^.A.^.F.`.9.$ > > > > > > * > > >               ",
"                                                                                                                                                                                                                                                                                                            * > * * > > > * * & O._.F.A.R.F.F..X..& d % ;._.V.F.F.F.A.F.A.F.^.!.A.C.R.R.v * > > > * $ { [.^.H.A.C.F.F.F.F._...7 > > > * > > * * > * % $ ! s.[.^.F.A.F.F.A.A.F.F.A.A.F.`.p.t * > * > > > > > > > >               ",
"                                                                                                                                                                                                                                                                                                            > > > > * * * * > * _ _.R.A.R.R.F.`.+.& p $ n.`.F.F.F.F.A.F.A.A.^.A.F.F.OX/ $ * * > > % o.`.A.A.A.^.^.R.A.F.`.g.$ * * > > * p > > * & : ` `.[._.V.A.F.A.A.A.A.A.A.A.A.F./.k.L * > * > * > > > > > > >               ",
"                                                                                                                                                                                                                                                                                                            > > > > > > * > 1 * ! `.F.A.R.H.A.XXO.& * > k.F.A.A.A.A.F.A.A.F.F.A.C.^.=.6 * * g > & } /.B.A..XF.F.A.A.C.`.v.% * > * > * > * * & q +.|.`.R.F.C.A.F.A.^.A.F.^.F.A.A.F._.k.m & > > > > > > > > > > >                 ",
"                                                                                                                                                                                                                                                                                                            > * > > > > > > > % ) _.F.F.^.F.F.XX*.* i F ]..XH.A.A.R.C.A.F.F.F.A.R.`.b * 2 * * % +.}.R.A.F.A.A.F.^.C.R.d.m * > * * * * & ; A 9.K.[.R.F.F.F.A.A.F.A.A.A.F.F.^.^.A._.s.; % * > > > * > > > > > * >                 ",
"                                                                                                                                                                                                                                                                                                            > > > > > > > * 1 * V _.R.A.F.F.F.XX^ & & 7._..XA.F.F.F.F.A.C.C.^.B.[. .$ > * * $ ~ OX^.A.R.A.A.^.R.^.R.l.r & > > * 1 * ; ! d.oX`.^.R.F.F.A.F.F.F.F.F.F.A.A.F.C._.XX8.= * > * > > * > > > > > > >                   ",
"                                                                                                                                                                                                                                                                                                            > > > > > * 1 * * * } XXF.F.F.A.F._...% 6 OX^..XF.F.A.A.A.F.A.F.C.^.,.x * * * ; _ .XR.A.A.A.F.F.F.^.^.OXm $ * * * * 6 H f.P.^.H.A.H.F.^.A.F.^.F.F.F.A.R.F.F./.'.c.m & * > > > > > > > * > > > > >                   ",
"                                                                                                                                                                                                                                                                                                            > > > > > * p * h $ ..`.F.F.A.F.R.).F $ Y ).R.A.A.F.F.A.A.F.F.F.C./.r & > > % ~ U.R.F.A.F.F.A.A.F.F./.{ $ % * % q ) i.[.^.F.^.A.F.F.F.A.F.F.F.F.A.F.A.^.C._.oX' 6 % p * > > > > * > > > > > > >                     ",
"                                                                                                                                                                                                                                                                                                          > > > > > > * * > > o 1.A.F.F.A.F.F.!.~ o j._.A.A.A.A.A.F.F.R.A.C.].Y $ > * = ) J.}.F.F.A.F.F.A.^.F.[.( - > $ r <.XXXX.XF.F.F.R.F.F.A.A.F.F.F.F.F.A.^.A._. X` % $ * * > > > > > > > > > > > > >                       ",
"                                                                                                                                                                                                                                                  > > > * > > > > > > > > > * > > >                       > > > > > > * > * > , f.}.F.A.F.F.R.[.H 9 [.^.A.A.F.A.F.F.^.!.F.`.+.; > 1 % +.[.R.C.F.F.A.F.A.^.C..XV 9 m ) i.XX[.^.H.^.F.F.F.R.R.A.^.A.^.R.^.^.^.^.OXI.+.7 ; d > * > > > > > > > > > * > > >                         ",
"                                                                                                                                                                                                                                            > > > > > > > > > > > > > > > > > > > * > > >                 > > > > > * > > > > % f.C.A.R.F.F.R.'.H q.[.^.A.A.F.F.A.F.C.F./.s.v 1 % $ ..[.C.C.A.^.A.A.F.F.F.B.C.;.k.'.).^.^.A.^.R.R.F.F.F.F.F.F.^.F.A.F.^.[.|.=.Q , $ * > > > > > > > > > > > > > > > >                           ",
"                                                                                                                                                                                                                                        > > > > > > > > > > > > > > > > > > > > > > > > > > >             > > > > > * > > > * r [.F.A.A.F.A.A.'.m Y.^.R.A.A.A.F.F.F.R.).].e % i 7 =.[.R.A.F.A.A.A.F.A.F.F.P.C.!.!.A.C.F.F.A.^.C.R.^.F.R.F.F.A.R.^.XXv.f.^ v $ % * * * > 2 > > > > > > > > > > > * >                             ",
"                                                                                                                                                                                                                                  > > > > > > > > > > > > > > > > > > > > > > > > * > > > > * > > *     > > > > > > > > > > % ( _.F.A.F.F.F.A.B.h.^.B.A.A.A.F.F.F.A.F.].{ * * 7 :.).V.F.F.F.F.F.A.F.F.F.F.C.F.C.F.A.C.!.C.^.F.A.^.A.^.F..X`.XXk.f./ e $ * > > > * > > * > * > > > > > * > > > > >                               ",
"                                                                                                                                                                                                                              > > > > > > > > > > * * > > > > > > > > > > > > > > > > > > > > > > > > > > > > > > > > > > 2 : 1.^.F.F.A.F.A.F.C.A.^.F.C.A.A.F.A.F.C.].X.= * e i.[.F.A.R.F.F.A.F.F.A.F.A.A.C.A.A.A.A.F.A.C.A.F.A.).'.XX@X3.{ r n $ & i p > * > * * * > > > * > > > > > > > > > >                                 ",
"                                                                                                                                                                                                                          > > > > > > > > > > > > > > > * > > > > > > * > > > > > > > > > > > > > > > > > > > > > > > > * > e J.B.F.F.A.A.F.F.F.C.F.A.A.F.F.F.A.F.].p.$ & r k.`.F.C.F.A.A.F.F.A.F.A.F.A.A.F.C.A.^.A.R.V.R.XXXXK.f.,.W O ; % * 2 > > * > * * * > * * > > > * > > > > > > > > >                                   ",
"                                                                                                                                                                                                                      > > > > * > > > * > > > > > > > > > > > > > > > * > > > > > > > > > > > > > > > > > > > > > > > > > & D '.F.C.F.F.F.F.F.C.F.A.A.A.A.F.F.F.^.f., o V .X^.F.C.C.A.F.A.F.F.A.F.A.A.A.^.C.C.F.`.!./.XXs.7.L N = % * > > > * * * * * > * > * * * > > > > > > > > * > > >                                       ",
"                                                                                                                                                                                                                    > > > > > > > > > > * > > > > > > > > > > > 1 * * > * * > > > > > > > > > > > > > > > > > > > > > > > & *.`.R.C.F.F.F.C.C.F.F.A.F.A.A.F.F.B.}.Z : ,.P.`.F.F.F.F.A.A.A.F.F.A.A.^.R.A.F.^._._.K.8._ e : # % % * 1 p * > > > > * * * > * > * * > > > > > > > > > > > >                                         ",
"                                                                                                                                                                                                                  > > > > > > > * > > > * > > > > > * > > > > > > > > > > * * * > > > > > > > > > > > > > > > > > > > > * * @XC.A.A.C.F.F.F.C.F.F.F.F.F.A.F.F.XXS 8 q..XA.F.F.A.F.A.A.F.A.C.F.F.A.A.^.^.R.2.@.H $ % * * 3 > d * > * p > > > > * > * > * > > > > > > > > > > > > >                                               ",
"                                                                                                                                                                                                                > > > > > * > > > > > > > > d * * * > > * % % % % % & & $ * * > > 2 > d > > > > > > > > > > > > * > > h & ' '.F.A.C.F.F.F.F.F.A.F.F.A.A.A.F.C.h.$.'.R.F.F.F.F.F.F.A.A.F.F.A.A.F.A.A.^.!.R.8.( V V 7 9 % , o % % p p > > > * > * > > > > > > > > > > * > > > > *                                                 ",
"                                                                                                                                                                                                              > > > > > > > > > > > * * > > > > 1 % % 7 H M { <.<.X.,.*.{ ^ n r o % * > > > * > > > > > > > > > > > > * > f.R.F.F.C.R.F.A.F.F.C.C.F.F.A.A.F.A.A._.F.F.A.F.F.F.F.F.F.F.F.F.F.F.F.F.A.A.R.^.`._.'.`.+XN.OXf.k.#.{ ~ % > $ > > > * > > > > > > > > * > > > > >                                                     ",
"                                                                                                                                                                                                          > > > > > > > > > > > > > > * * p * , j ( l.N.B._.`.^.A.^.XXP.`.).].v.K.+.7 , $ * d d > > > > > > > > > * > $ W XXR.R.F.F.F.F.A.C.A.F.A.F.F.F.A.F.!.B.A.F.F.F.R.F.F.F.A.F.F.F.F.F.F.F.F.A.F.A.A.C.F.F.F.F.F.F.C.R.^._._.OXw.R 5 % > > * * * > > > * > * * > >                                                         ",
"                                                                                                                                                                                                        > > > > > > > > > > * > * > 1 2 % ; Q f.[.`.A.A.^.F.F.A.A.F.A.F.C.V.B.F.^.R._.m.o.7 % % d * * > > > > > > > > 7 d.R.F.F.F.F.F.F.C.F.A.F.F.A.A.A.F.F.A.F.F.F.F.B.F.F.F.F.F.A.F.A.A.F.A.A.R.R.F.R.F.R.^.A.A.F.A.F.A.R.R.C.F.F.R.'.c.! $ % > > > > * > * > > > > >                                                         ",
"                                                                                                                                                                                                      > > > > > > > > > > > * > > * % , ` f.XXF.F.!.A.A.F.F.F.A.A.R.^.F.F.F.F.A.F.A.A.F._.U.%.N % 2 > > > * > > > > $ X.[.B.C.A.A.F.A.F.F.F.F.F.F.A.A.A.A.A.F.F.F.A.F.F.C.A.F.F.F.A.C.F.F.A.F.F.F.F.R.F.R.^.A.^.A.A.A.^.A.A.A.A.^.R.R.R.F.`.v.M % > > > * * > > > * > >                                                         ",
"                                                                                                                                                                                                      > > > > > > > > d > > > > > ; ~ k.`.^.F.R.F.F.A.A.F.A.^.A.^.A.A.A.F.A.A.A.F.A.R.F.^.R.^.#X@.e % > h p * * > * m P.F.F.C.A.F.F.F.F.F.F.F.A.F.F.F.F.F.A.F.R.F.F.F.A.F.C.F.F.F.A.F.F.F.F.F.F.A.F.^.A.F.F.A.^.^.A.F.A.A.A.A.A.F.A.F.^.^.F.`.v.J & > > * * > > > > * >                                                         ",
"                                                                                                                                                                                                    > > > > > > > > > > > > > * 7 X.J.!.C.!.A.A.F.F.F.A.A.A.A.A.^.A.A.F.F.A.F.F.A.F.F.F.F.A.R.R.[.K.m % > 2 g * 2 > 0.^.B.F.F.F.F.F.F.F.F.F.F.F.R.F.F.F.F.F.F.F.A.F.F.F.A.F.F.F.F.F.F.F.F.A.A.A.A.C.^.^.A.A.F.F.A.A.A.A.A.A.^.A.A.A.A.A.F.A.R.R.l.N * p * * > > > > > > >                                                       ",
"                                                                                                                                                                                                    > > > > > > > > > > > > $ m 8.).R.V.^.H.F.A.F.F.A.A.A.F.F.F.A.F.F.F.A.F.F.F.F.F.F.F.A.F.R.R.F.R.#X-.7 % * > $ ~ ].B.F.F.F.F.F.F.F.C.F.F.F.F.F.F.F.F.A.R.F.F.F.F.F.C.A.F.F.A.A.F.F.A.C.F.A.A.A.C.F.F.F.^.^.F.^.F.F.A.A.A.A.^.A.A.^.A.A.^.^.^.`.i.$ * * > > * > > > > >                                                       ",
"                                                                                                                                                                                                  * > > * > > > > > * * > $ ) XX_.A.F.F.C.F.A.A.A.F.F.A.A.F.F.F.F.F.F.F.A.F.A.F.F.F.F.F.F.F.F.A.A.A.F..Xv.J % < 9 /.F.F.A.F.F.F.F.C.F.F.F.F.F.F.F.F.F.F.F.A.F.F.F.A.A.F.F.F.C.A.A.C.R.R.A.F.F.F.F.C.F.^.R.^.^.^.R.R.R.R.C.F.C.F.^.^.A.A.A.A.A._.A.`.4 * * > > > > > > * >                                                       ",
"                                                                                                                                                                                                  > > > > > > > > > > * $ ) XXR.A.A.F.A.A.F.C.A.A.F.A.A.F.F.F.F.F.F.F.F.F.F.F.F.F.F.F.A.F.F.F.F.F.F.F.R./.XX#.K i.^.F.A.A.A.A.F.A.C.F.F.F.F.F.F.C.F.F.F.A.A.F.A.F.F.F.F.F.A.F.C.C.C.C.R._.'.OXl.P.K.p.y.:.7.,.k.,.n.v.P.`.XX^.^.B.B.C.A.A.A.A.^.F.p.w 2 > > * > > > > > >                                                       ",
"                                                                                                                                                                                                  > > > > > > > * > > > ) /.R.^.A.A.A.F.F.F.F.F.A.A.F.F.F.F.F.F.F.F.F.F.F.F.F.F.A.F.A.F.F.A.F.A.F.F.F.A.F.^.'.B.`.F.F.F.F.F.A.F.A.F.F.F.F.F.F.F.F.F.F.A.F.F.F.A.R.F.H.F.F.B.C.`.'.OXf.0.*.) r e : % - % % $ % # % ; , : M F { N.l._._.A.A.^.A.A.`.}.o p > > > > > > > * >                                                       ",
"                                                                                                                                                                                                > > * * > > > * * * * P }.P.F.A.A.F.A.A.A.F.A.F.A.F.F.F.F.F.F.F.F.A.F.F.F.F.F.F.F.F.A.F.A.F.F.^.F.F.A.^.A.^.F.F.F.F.A.F.F.F.F.F.F.F.F.F.F.F.C.C.F.F.C.C.F.F.A.F.A.^.A.^._.K.J.<.H 7 6 % % * > > > 2 > > > * > d > > * 2 > * & o e I +.N._.`.^.F.OXo.* > > > > > > > > > *                                                       ",
"                                                                                                                                                                                            > > > > > > > > > > * * $ l._.A.F.A.A.F.^.A.F.A.A.F.A.F.A.F.F.F.A.F.F.F.F.F.F.C.F.F.F.F.F.F.F.F.A.F.F.F.F.F.A.A.F.F.F.F.A.F.F.F.F.F.F.C.F.F.A.F.C.F.F.F.C.F.F.F.C.F.).`.oXn.+.V = $ * * * > > > > * > * * * > > > * * > * * * * * > > % & % H q.R.#X4.: 2 > > > > > > * > >                                                         ",
"                                                                                                                                                                                        * * > > > * * > > > > * * % Q [.C.A.A.A.A.A.A.A.F.F.A.A.F.F.A.A.F.F.F.A.F.F.F.F.F.F.F.F.F.F.F.F.F.F.^.A.A.F.F.F.F.F.F.F.F.F.F.C.F.A.F.F.F.F.A.F.F.F.F.F.F.F.B.F.F.F.C.^.K.6.H $ & * > > > * g > > > > > > > > * > > > > > * * * * > > * * > > > * % e c % * > > > > > > > > > >                                                         ",
"                                                                                                                                                                                    > > > > > > > > > > > > * * * $ +.[.A.A.A.A.F.F.F.A.F.F.F.A.A.F.F.A.A.F.F.C.F.F.C.F.F.F.F.F.F.F.F.F.F.F.F.F.F.F.F.A.F.F.F.F.F.F.F.F.F.A.F.A.F.F.F.A.A.F.F.F.F.F.F.C.R.`.k.#.l % % * * * * > > > > > > * > > * > > > > > > > * > * * > > > * > > > > > > > * p * * > > > > > > > > >                                                         ",
"                                                                                                                                                                                  > > > > > > > > > > > * > * * > > =.`.F.A.A.A.A.F.F.A.F.A.F.F.F.F.F.F.F.F.A.F.F.F.A.F.F.F.F.F.F.F.F.F.F.F.R.F.F.F.F.F.F.F.F.F.F.F.F.F.F.F.F.F.F.F.F.F.F.F.F.A.F.V.!.[.f.) , * > 2 1 * * > > * * * > > > > > > > > > > > > > > > > > > > > > > * * > > > * * * * > > > > > > > > > >                                                           ",
"                                                                                                                                                                                > > > > > > > > > > > > > > * > > % ,._.F.A.A.A.A.A.F.A.F.F.F.F.A.F.F.F.F.F.A.F.F.A.F.F.F.F.F.F.F.F.F.F.F.F.F.F.F.F.F.F.F.F.F.F.F.F.F.A.A.F.F.F.F.F.!.R.C.F.F.F.R.P.d.H = % > > * > * > p > > > > * > > > * > > > > > > > > > > > > > > > > > > > * > > > > * > > > > > > > > > > > >                                                           ",
"                                                                                                                                                                              > > > > > > > > > > > > > > > > * * & B [.F.^.A.F.A.A.F.F.F.A.F.F.A.F.F.F.F.F.F.F.F.C.F.F.F.F.F.F.R.F.F.F.A.F.F.F.F.F.F.F.F.F.F.F.F.F.F.F.F.F.F.F.F.F.C.F.F.C.B.).M._ 6 > * * * * > > * > > > > > > > > * * * > > > > > > > > > > > > > > * * > * > > > > * * * * * > > > > > > * > >                                                             ",
"                                                                                                                                                                            > > > > > > > > > * > > > > > > > > > * ; k.^.F.F.A.A.A.F.F.F.F.A.F.F.F.F.F.A.F.F.F.F.F.F.F.F.F.F.F.F.^.F.F.F.F.F.F.F.F.F.F.F.F.F.F.F.F.F.F.A.F.F.F.F.F.F.A.F.C.P.+.6 * * * * d * * * > * > > > > > > * > > > > > > > > > > > > * > > * > > * > > > > > * > * * * * > * > > * > * > > >                                                             ",
"                                                                                                                                                                          * > > > * > > > > > * > > * > > * > * * > % J OX^.A.^.F.F.F.F.F.F.F.F.F.F.F.F.F.F.F.F.F.F.F.F.F.R.F.F.F.F.F.F.F.F.F.F.F.F.F.F.F.F.F.F.F.F.F.^.F.F.F.F.A.F.F.C.).I.^ : 2 > * * * > > > * > > > > > > > > > > > > > > > > > > > > > > > > > > > > > > * > * * > > > > > > * > > > > > > >                                                               ",
"                                                                                                                                                                        > > > * > > > > > > * > * * * > > * > > > 2 > % ) [.F.R.F.A.F.F.F.F.F.F.C.F.F.F.F.F.F.F.F.F.F.F.F.F.F.F.F.F.F.F.F.F.F.F.F.F.A.F.F.F.F.F.F.F.F.F.A.F.F.F.F.B.F.^.+.7 y > * * > > > > > > > * > * > > > > > > > > > > > > > > > >       > > * > > > * > * > > > > * > > > > > > > > > > >                                                                 ",
"                                                                                                                                                                      > > > > * > * > > > > * * * * > > * * > > > > > > ; %.[.F.F.F.F.A.F.F.A.F.F.F.F.F.F.F.F.F.F.F.F.F.F.F.F.F.F.F.F.F.F.F.F.F.F.F.F.F.F.F.F.R.A.F.F.F.A.F.F.F.F.!.A.0.% * p * * * > * > > > > > > > > > > > > > > > > >                                 > > * > > > > * * > * * * > > > > >                                                                   ",
"                                                                                                                                                                    > > > > > > > > > > > * * & v ..A % * > > * * > > > * % ,._.F.F.F.A.F.F.F.F.F.F.F.F.F.A.F.F.F.F.F.F.F.F.F.F.F.F.F.F.F.F.F.F.F.F.F.F.F.F.A.F.F.^.F.A.^.A.^.A.F.F.A.}.~ % > > > > > * > > > > > > > > > > > > >                                                   > > > > > > > > > > >                                                                       ",
"                                                                                                                                                                  > > > > > * > > > > > * > & H f.].s.b % > * * > > > > d * : 9.R.F.F.F.F.A.A.F.F.F.F.F.F.F.F.F.F.F.A.F.F.F.F.F.F.A.F.F.F.F.F.F.F.F.F.F.F.F.F.^.A.A.F.F.A.A.F.A.A.F.A.B.K.e * p > > > * > > > > > > > > > >                                                             > > * > > >                                                                             ",
"                                                                                                                                                                  * > > > > > > > > > > > % A c.R.F./.K.6 * > 2 > > > > > > * 7 f.^.F.F.A.F.A.F.F.F.F.F.A.F.F.F.F.F.F.F.F.F.F.F.F.F.F.F.F.A.F.F.F.F.F.F.F.F.F.F.F.F.A.A.F.F.F.F.F.C.A.F.F.'.; p > > > > > > > > > > *                                                                                                                                                           ",
"                                                                                                                                                                > * > > > > > > > > > > % 5 v..XR.^.R./.u.% * 1 > > > > > * > * S {.R.R.F.F.F.A.A.F.F.F.F.F.F.F.C.F.F.F.F.F.F.F.F.F.F.F.F.F.R.F.C.F.F.F.F.F.F.F.A.F.F.F.F.A.F.F.F.A.C.C.F._.,.$ * 2 * > > > > > > * >                                                                                                                                                           ",
"                                                                                                                                                              > > > * > > > > > > > > * , B./.F.^.A.A.C.[.<.% 2 > > > > > p d > * Q ].R.A.F.F.F.A.F.F.A.F.A.F.F.F.F.F.F.F.F.F.F.F.F.F.F.F.F.F.F.F.A.F.F.F.F.F.F.F.F.F.F.F.F.F.C.A.A.C.^.A.F.[.! % 2 * > > > > > > > > >                                                                                                                                                         ",
"                                                                                                                                                            > > > > > > > > > > > > > 7 i.`.F.F.R.^.A.A.C.OX` $ > > d > > > * 2 2 > ` [.A.R.F.A.F.F.F.F.F.A.F.F.F.F.F.F.F.F.F.F.F.F.F.F.F.F.F.F.F.F.F.F.F.F.F.F.F.F.F.F.F.A.F.F.F.F.C.C.F.A.^.a.4 * > > > > > > > > > >                                                                                                                                                         ",
"                                                                                                                                                          > > > > > > > > > > > > > = >./.B.F.R.F.F.F.A.F.F./.C % 2 > > > * * * * > $ 0.`.^.R.R.F.F.A.F.A.F.F.A.F.F.F.F.F.F.F.F.F.F.F.F.F.F.F.F.F.F.F.F.F.F.F.F.F.F.F.F.F.F.F.C.F.A.F.F.F.F.F.`.} % * * * > * > > > > > >                                                                                                                                                       ",
"                                                                                                                                                          > > > > > > > > > > > d % -.[.F.C.A.C.F.F.F.F.F.A.^.J.z % d > > * > > * > * e '.R.F.R.^.A.F.C.F.F.F.F.F.F.F.F.F.F.F.F.F.F.F.F.F.F.F.F.F.F.F.R.F.F.F.F.F.F.A.F.F.F.A.F.F.F.F.F.A.F.^.C./., * * > * * * > > > > >                                                                                                                                                       ",
"                                                                                                                                                        * > > * > > > > > > > 2 , Q XX^.F.^.A.A.A.F.F.F.F.F.C.^.v.6 * g > * > > * 1 p % #.XXF.F.A.F.F.F.A.F.F.F.F.F.F.F.F.F.F.F.F.F.F.F.F.F.F.F.F.F.F.F.F.F.F.F.A.F.C.F.F.F.F.F.A.F.F.F.A.F.A.A.!.>.; > * * > > > > > > >                                                                                                                                                       ",
"                                                                                                                                                      * > > > > > > > 1 * * h * J }.F.R.A.A.A.A.A.F.R.F.F.R.A.F._.K.% * > * > * > * * * 7 U.R.F.F.F.F.F.A.A.A.F.F.F.F.F.F.F.F.F.F.F.F.F.F.F.F.F.F.F.R.F.F.F.F.F.F.F.F.F.A.F.F.F.F.F.F.F.F.F.A.A.^.oX9 * * * * > > > > > > >                                                                                                                                                     ",
"                                                                                                                                                    > > > > > > > > > > d * * 7 {.^.F.^.F.F.A.A.A.A.A.F.F.A.F.A.C.).p.; * > * * * > > d o p.^.A.F.F.F.F.F.F.F.F.F.F.F.F.F.F.F.F.F.F.F.F.F.F.F.F.F.F.F.F.F.F.F.F.F.F.F.F.F.C.F.F.C.F.F.F.F.F.A.^.F.XX$.& * * > > > > > > > >                                                                                                                                                     ",
"                                                                                                                                                    > > > > > > * > * * > * 6 k.`.F.F.F.A.A.A.F.F.A.A.F.F.F.F.F.F.C.).i.4 > > > 2 * * > % 0.F.F.A.A.F.F.A.F.F.F.F.F.F.A.F.F.F.F.F.F.F.F.F.F.F.F.F.F.F.F.F.F.F.F.F.F.F.F.F.F.F.A.F.F.C.F.F.F.F.F.F.F.J.k p * > > > > > > > > >                                                                                                                                                   ",
"                                                                                                                                                  * > * > > > > > > > p 3 ; +.`.A.A.A.A.A.A.A.A.F.F.F.A.A.F.F.F.F.R.B.[.:.7 * > > > > * 6 [.F.F.F.F.F.F.F.F.F.F.C.F.F.F.F.F.F.F.F.F.F.F.F.F.F.F.F.F.F.F.F.F.F.C.F.F.F.F.F.C.F.F.F.A.F.F.A.F.F.F.R.F.R.T % * > > > > > > > > >                                                                                                                                                   ",
"                                                                                                                                                * > > > > > > > > * * 2 % / oXB.F.A.^.A.F.F.A.F.F.F.A.^.A.F.A.F.^.F.R.B.XX@.$ > > > > & +.`.F.F.F.F.F.F.F.F.F.A.F.F.F.F.C.F.F.F.F.F.F.F.F.F.A.F.F.F.F.F.F.F.F.F.F.F.F.F.F.F.F.F.F.A.F.F.A.F.F.^.A.R.^.q.; * * > > > > > > > >                                                                                                                                                   ",
"                                                                                                                                                > > > > > > > > > * > % B oX^.F.F.A.A.F.A.A.A.F.F.F.A.F.F.A.A.A.F.F.A.F.C._.>.= & * $ H J.A.F.F.F.F.F.C.F.F.F.F.F.F.F.F.C.F.F.F.F.F.F.F.F.C.F.F.C.F.F.F.F.F.F.F.F.^.F.F.F.A.F.F.F.A.F.F.A.F.F.F.F.R.R.}.7 > * > > > > > > > >                                                                                                                                                   ",
"                                                                                                                                                > > > > > > > * > > * 9 f.R.F.F.A.A.A.A.A.F.A.R.A.F.F.F.F.F.C.A.^.A.F.F.A.C.XXi._ V @.'.R.F.F.F.F.F.F.F.F.F.F.F.A.A.F.F.F.F.F.F.F.F.F.F.F.F.F.F.F.F.R.F.F.F.F.F.F.F.F.F.F.F.F.F.F.F.A.F.F.F.F.F.F.F.A.^.^ * * > * > > > > > >                                                                                                                                                   ",
"                                                                                                                                              * * > > > > * * > > * > *.`.R.^.A.A.F.A.A.A.A.F.F.F.F.F.F.F.F.F.A.F.A.F.A.F.F.F.^..XXX_.R.A.F.F.F.F.F.F.F.F.F.F.F.F.F.F.A.F.F.F.F.F.F.F.F.F.F.F.F.F.A.F.F.F.F.F.F.F.F.F.F.F.F.F.R.F.F.A.F.F.F.F.A.A.F.F.`.-.$ * > * > > > > > > >                                                                                                                                                 ",
"                                                                                                                                              * > > > > > > > > 2 $ L OXF.A.F.F.A.F.A.A.F.A.F.F.F.A.C.F.F.F.F.A.F.F.A.F.F.F.F.F.A.A.F.F.F.F.A.F.F.A.F.F.F.F.F.F.F.F.F.F.F.F.F.F.F.F.F.F.F.F.F.A.F.F.F.F.F.F.F.A.F.F.F.F.F.F.F.F.F.F.F.F.F.F.F.A.F.F.A.!.d.% 1 * > > > > > > > >                                                                                                                                                 ",
"                                                                                                                                              > * > > > > > > 2 * 9 Y.R.A.A.F.F.A.A.A.A.F.F.F.F.F.F.A.F.F.F.F.A.F.A.A.F.F.F.F.A.A.A.A.A.A.F.F.F.F.F.A.F.F.F.F.F.F.F.F.F.F.F.F.F.F.F.F.F.F.F.F.A.F.F.F.F.F.F.F.F.A.A.F.A.F.F.F.F.F.F.A.F.F.F.F.A.F.A.A.^.].: * * * * > > > > > >                                                                                                                                                 ",
"                                                                                                                                              > > * > > > > > * % <.!.F.^.F.A.A.A.A.F.A.F.F.C.F.F.F.F.F.F.F.F.F.A.F.F.F.A.F.A.F.F.F.A.A.F.F.F.F.F.F.F.F.F.F.C.F.F.F.C.F.F.F.A.F.F.F.F.F.F.F.F.F.F.F.F.F.F.F.F.F.A.F.C.F.F.F.F.F.F.F.F.F.F.F.F.A.A.F..XF.'.m * * > * > * > > > >                                                                                                                                                 ",
"                                                                                                                                            p > > > > > > * > > % b.!.F.A.A.A.A.A.A.A.A.A.^.F.F.F.F.F.F.F.F.F.F.F.F.F.F.F.A.A.F.A.A.F.F.F.F.F.F.F.F.F.F.F.C.F.F.F.F.F.F.F.F.A.F.F.F.F.C.F.F.F.C.F.F.F.C.F.A.F.F.F.F.F.F.F.F.F.F.F.F.F.F.F.A.F.F.A.F.F.F.`.! * * > > > > > > > >                                                                                                                                                 ",
"                                                                                                                                          > > > > > > > * > > > * m [.R.F.A.F.A.F.A.F.R.F.F.F.F.F.F.C.F.F.F.F.F.F.F.F.F.A.A.^.A.A.A.F.F.F.F.F.F.F.F.F.F.A.F.A.A.F.F.F.F.F.F.F.F.F.F.F.F.F.F.F.F.F.F.F.F.A.F.F.F.F.F.F.F.F.F.F.A.F.F.F.F.F.F.F.F.F.A.A.R.[.J % * > > > > > > * >                                                                                                                                                 ",
"                                                                                                                                      > > > > > > * > > > > * * > % Q '.R.F.^.A.A.F.F.A.A.A.F.F.F.F.F.F.F.F.F.F.F.F.F.F.F.F.F.F.A.F.F.F.F.C.F.F.F.F.F.F.F.F.F.F.F.A.F.F.F.F.F.F.F.F.F.F.F.F.F.F.F.F.F.C.F.F.C.F.F.C.F.F.F.F.A.F.F.F.F.F.R.F.R.A.A.A.A.F.`.~ * * * > > > > > > >                                                                                                                                                 ",
"                                                                                                                                    * > > > > > > > > > > > * * > * % ) XXF.R.R.F.F.A.F.F.F.F.F.F.F.F.F.F.F.F.F.F.F.F.F.A.F.F.F.F.F.F.F.F.F.F.F.F.F.F.F.F.F.F.F.F.F.F.F.F.F.F.F.F.F.F.C.F.F.F.F.F.F.F.F.F.F.F.F.F.F.F.F.F.F.F.F.F.F.F.F.F.F.F.F.F.R.R.F.[.J % > > > > > > > > *                                                                                                                                                 ",
"                                                                                                                                  * * > > > > > > > > > > > * * > > * ; X.}.A.R.A.A.A.A.A.F.F.F.F.F.F.F.F.F.F.F.F.F.F.F.F.F.F.F.F.F.F.A.A.A.^.F.F.F.F.F.F.F.F.F.F.F.F.F.F.F.F.C.F.F.F.F.F.F.F.F.F.A.F.F.F.F.F.F.F.F.F.F.F.F.F.A.F.F.F.A.F.F.F.F.F.^.A.C.).Z * > > * > > > > > >                                                                                                                                                 ",
"                                                                                                                                > > > > > > > * > > > * * > > * * > * * 4 @.[.H.^.F.A.A.F.F.F.F.F.F.F.F.F.F.F.F.F.F.F.A.A.F.F.F.F.F.F.F.A.F.A.F.F.F.F.F.F.F.F.F.F.F.F.F.F.F.F.F.F.F.F.F.F.F.F.F.F.F.C.F.F.F.F.A.F.F.F.F.F.F.F.F.F.F.F.F.F.F.F.F.F.F.F.C.OX: * > > * * > > > > >                                                                                                                                                 ",
"                                                                                                                              > > > > > > > * > * > > > > * > > > > > * > 7 0.XXR.A.R.A.F.F.A.A.C.A.F.F.F.F.F.F.F.F.F.F.F.F.F.F.F.F.F.F.A.F.A.F.F.F.F.F.C.C.F.F.F.F.A.A.F.F.F.F.F.A.F.F.F.F.F.F.F.F.A.F.F.F.A.F.F.F.A.F.F.F.F.F.F.F.R.F.F.F.F.R.F.F.^.F.g.e > * > > * > > > > >                                                                                                                                                 ",
"                                                                                                                            * * > > > > > > > > > * > > > * > > > > > > > * : i._.F.A.A.A.F.A.A.F.A.F.F.F.F.F.F.F.F.F.F.F.F.F.F.A.F.F.F.A.F.A.A.A.F.F.F.F.F.F.F.F.F.F.A.F.F.F.F.F.F.F.F.F.F.F.C.F.F.F.F.F.F.A.F.F.F.F.F.F.F.F.F.F.F.F.F.F.F.F.F.F.R.A.F.|.* > * > > > > > > > >                                                                                                                                                 ",
"                                                                                                                          > > > > > > > > > * > > > > > > > > > > > > > > p * = l.^.F.A.F.F.F.F.A.F.F.F.F.A.F.F.F.F.A.F.F.F.F.F.F.A.F.F.F.F.A.F.F.A.F.F.A.F.F.F.F.F.A.F.F.F.F.F.F.F.R.A.F.F.F.F.F.F.F.F.F.F.F.F.F.F.F.F.F.F.F.F.A.F.F.F.F.F.R.F.^.F.A.R.7.% > * > > > > * > > >                                                                                                                                                 ",
"                                                                                                                          > > > > > > > > * > * > * % & * > > > > > > > > > > * 7 i.C.F.A.A.F.F.F.F.F.F.C.F.F.F.F.F.F.F.F.F.A.F.F.A.F.F.F.F.F.F.F.F.F.F.F.F.F.F.F.F.F.F.F.F.F.F.F.F.A.F.F.C.F.F.F.F.F.F.F.F.F.F.F.F.F.A.A.C.F.F.F.C.F.F.F.F.A.A.A.A.F.XX,.% > > > > > > > > >                                                                                                                                                   ",
"                                                                                                                        > > > > > > > > > > * > * k =.[ # * > > > > > > > > > > * J |.A.F.A.A.A.F.A.F.A.F.F.F.F.F.F.F.A.F.F.F.F.F.F.F.F.F.F.F.F.F.F.F.F.F.F.F.F.F.A.F.F.F.F.F.F.F.F.F.F.F.F.F.F.F.F.F.F.A.F.F.F.F.F.F.C.A.F.F.F.F.A.F.F.A.F.A.A.A.A.F.XX^ * > > > > * > > > >                                                                                                                                                   ",
"                                                                                                                      > > > > > > > > > > * > * S f._.[.i.$ * > > > > > > > d p g % Q J.^.A.F.F.F.F.F.A.F.F.F.F.F.F.F.F.F.F.F.F.F.F.F.F.F.F.F.F.F.F.F.F.F.F.F.F.F.F.F.A.F.F.F.F.F.C.F.F.F.F.F.F.F.F.F.F.F.F.F.F.F.F.F.A.F.F.F.F.F.F.F.F.F.A.F.F.A.F.A.#Xo * > * > > > > > > >                                                                                                                                                   ",
"                                                                                                                    > > > > > > > > > > 2 > * 4 n._.F.F.XX0.: > * > > > > > 2 * 1 2 % ` OXF.F.F.A.A.F.A.F.F.F.A.A.A.A.F.F.F.F.F.F.F.F.F.F.F.F.F.F.F.F.F.F.F.F.A.F.A.F.F.F.F.F.F.F.F.F.F.F.F.F.F.F.F.F.C.F.F.F.F.F.F.F.F.F.F.F.F.F.F.F.F.F.F.C.F.F.F.!.X.$ > > * > > > > * > >                                                                                                                                                   ",
"                                                                                                                  * > > > > > > > > > > 2 * % p.].F.^.^.^._.{ > h 2 > > > * > 1 1 p 2 % +.[.!.A.F.F.F.F.A.A.F.A.F.F.A.F.F.F.F.C.C.F.F.F.F.F.F.F.F.F.F.F.F.F.F.F.F.A.A.A.F.F.F.F.F.F.F.F.F.F.F.F.F.F.F.F.F.F.F.F.F.A.A.F.F.F.F.F.F.F.F.A.F.F.F.F.F.F.[.r % > > > > > > > > > >                                                                                                                                                   ",
"                                                                                                                  > > > > > > > > > > > 2 : +._.C.R.R.A.R.A./.J d 2 * > > > > * d > 2 * % 0.`.R.F.F.A.A.A.F.F.F.F.F.F.F.F.F.F.F.F.F.F.F.F.F.F.F.F.F.F.F.F.F.A.F.F.F.F.^.F.F.F.F.F.F.F.F.F.F.F.F.F.F.F.F.F.F.F.F.F.A.A.A.A.F.F.F.F.F.F.F.A.A.A.F.C._.y.$ > > * > > * > > * >                                                                                                                                                     ",
"                                                                                                                > > > > > > > > > > > > % } }.F.F.^.R.F.R.F.^.v.b % > > > * > > > > * * * r P.F.A.A.A.A.A.F.A.F.F.F.F.C.F.F.F.F.F.F.F.F.F.F.F.F.F.A.F.F.F.F.F.F.F.F.F.F.F.F.F.F.F.F.R.F.F.F.F.F.F.F.F.F.A.F.F.F.A.F.F.F.A.F.F.F.F.F.F.F.A.A.F.F.C.[.V & > > > > > > > > > >                                                                                                                                                     ",
"                                                                                                              > > > > > > > > > > > > % ~ ].F.A.A.A.F.F.R.F.A.`.c.6 * 1 > > > > > > * * * % ..[.F.A.A.F.A.F.F.F.F.F.F.F.F.F.F.F.F.F.F.F.F.F.F.F.F.A.F.F.F.F.F.F.F.F.F.F.F.F.F.F.F.F.F.F.F.F.F.F.F.F.F.F.F.F.F.F.F.F.F.F.F.F.F.F.F.F.F.C.F.F.F.F.C.K.o * > > * > > > > > >                                                                                                                                                       ",
"                                                                                                            > > > > > > * > > > > > $ D `.C.A.A.F.A.^.A.A.A..XF._.<.% * > > > > * > * * * * $ _.F.A.A.A.A.F.F.F.F.F.F.F.F.A.F.F.F.A.F.F.F.F.F.F.A.F.F.F.F.F.F.F.F.F.F.F.F.F.F.F.F.F.F.F.F.F.F.F.F.F.F.F.C.F.F.R.F.F.F.A.A.F.A.F.F.F.A.A.A.^.A.C._...& * * * * > > > > > *                                                                                                                                                       ",
"                                                                                                            > > > > > > > > > > > * S k.A.F.A.A.A.A.A.A.F.A.R.^.A.XX>.; > > > > > > > > * > % } `.A.A.A.A.A.A.F.F.F.F.F.F.F.F.F.F.F.F.F.F.F.F.A.F.F.F.F.F.F.F.F.C.F.F.F.F.F.F.F.F.F.F.F.F.A.A.F.C.F.F.F.F.F.F.F.F.F.F.F.F.F.F.F.C.F.F.^.A.^.A.`.U., * * * * > * > > > >                                                                                                                                                         ",
"                                                                                                          > > > > > > > > > > > > > d.`.R.R.R.A.A.A.^.A.A.A.F.A.F.F.[.+.> * > > > > > > * > i M _.F.A.A.F.F.A.F.F.F.F.F.F.F.F.F.F.F.F.F.F.F.F.F.F.F.F.F.F.F.A.F.A.F.F.F.F.F.F.F.F.F.F.F.F.F.F.F.F.F.F.F.F.F.F.F.F.A.A.F.F.A.F.F.F.A.C.A.F.^.^.K.w % * > > * > > > > * >                                                                                                                                                         ",
"                                                                                                        * > > > > > > > > * > > o X.'.F.F.F.F.A.A.A.A.A.A.F.A.A.A.^.F.OXR = > > > > > > > * * b `.B.F.A.F.F.F.A.A.F.F.F.A.F.F.F.F.F.F.F.F.F.F.F.F.F.A.F.F.F.F.F.F.F.F.F.F.F.F.F.F.F.F.F.F.F.F.A.F.F.F.F.F.C.F.F.F.F.F.F.A.F.F.F.F.F.A.A.A.C._...* > * > > > > > > > > >                                                                                                                                                         ",
"                                                                                                      > > > > > > > > > > * 2 * / `.F.^.F.A.F.A.A.A.A.A.A.A.F.F.F.F.A.H. X( $ > > * * > > 2 & ! '.F.F.F.A.F.F.A.F.F.F.F.A.A.F.F.F.F.F.F.F.F.F.F.F.F.F.F.F.A.F.F.F.F.A.F.F.F.F.F.F.A.F.A.F.F.F.A.F.A.F.F.F.F.F.F.F.F.F.A.F.F.F.F.F.F.A.C.C.).>.- > * * * > > > > > > >                                                                                                                                                           ",
"                                                                                                      > * > > > > > > > > > * r c.C.F.F.A.A.F.F.A.A.A.F.A.A.A.F.A.A.A.F.V././ % > * > * * * > 8.^.F.F.F.F.A.F.A.A.F.F.A.F.F.F.F.F.F.F.F.F.C.A.F.A.F.F.F.F.F.F.A.A.A.F.F.A.A.F.F.F.A.F.F.F.F.F.F.F.F.F.A.F.F.F.F.F.C.A.F.F.F.F.F.R.R.A.F.^.k.% * * * * * > > > > > > >                                                                                                                                                           ",
"                                                                                                    > > > > > > > > > > 2 * $ p.`.F.^.R.^.A.A.A.A.A.F.A.F.F.A.F.F.A.A.R.A.A._.3.: $ % * % $ i.[.F.F.F.A.A.F.F.A.A.F.F.F.F.F.F.F.A.F.F.F.A.F.F.A.A.F.F.F.F.A.F.F.F.A.F.A.F.F.A.F.F.F.F.F.F.F.F.F.F.C.C.F.F.A.F.F.F.F.F.F.A.A.F.F.^.F.R._.f.A * * * > * * > > > > > >                                                                                                                                                             ",
"                                                                                                    > > > > > > > * > p 2 ; *.[.F.!.^.F.F.F.F.F.F.F.A.A.F.F.F.A.A.^.A.^.R.F.F.[.e.` G r ) g.`.B.F.F.F.F.A.A.A.F.A.F.F.F.F.F.F.F.A.F.F.F.A.A.F.C.F.A.F.F.F.F.F.F.F.F.F.F.F.F.A.A.A.F.F.F.F.F.F.F.F.F.F.F.F.F.F.F.F.F.F.F.A.A.F.F.R.^.XXc.m * > * > > > * * > > > > >                                                                                                                                                             ",
"                                                                                                  > > > > > > > * * > > * / K.F.R.^.A.R.F.F.A.F.A.F.F.A.A.A.F.F.F.F.F.^.A.R.^.B.F.`.'.`.XX^.F.F.F.F.F.F.A.A.A.F.F.F.A.F.F.F.A.F.F.F.A.F.F.C.F.F.F.F.A.F.F.A.R.R.F.A.A.F.F.F.A.A.F.C.F.F.F.F.F.A.A.F.F.F.F.F.F.F.F.F.F.C.F.A.F.F.A.^.K.7 & * * > > > > * > > > > >                                                                                                                                                               ",
"                                                                                                  * * > > > > > * * h * %  XA.F.^.^.^.A.^.A.F.F.A.F.F.A.F.A.F.A.F.A.F.A.A.A.R.F.A.C.C.A.A.A.A.A.A.F.F.F.A.F.F.F.A.F.C.F.F.F.F.F.F.F.F.F.F.F.A.A.F.F.F.F.A.A.F.F.F.F.F.F.F.F.A.A.F.F.F.F.F.A.F.R.F.A.F.F.F.F.F.F.F.A.F.F.F.F.F.A.`. Xr $ * > > > > > > > > * * >                                                                                                                                                                 ",
"                                                                                                  * > > > > > * > > > : 5.[.F.A.A.A.A.A.A.F.A.A.^.F.F.F.F.A.F.A.F.A.F.A.F.F.A.^.A.A.A.F.A.A.A.A.F.F.F.F.F.A.F.F.A.F.F.F.F.F.F.F.F.F.F.F.F.F.F.F.F.F.F.F.B.C.F.F.A.F.A.F.F.A.A.A.F.F.F.F.F.F.F.F.F.F.F.F.A.A.F.A.F.C.F.F.F.C.V.'.d.A * * 1 > > > > > > > > > > >                                                                                                                                                                 ",
"                                                                                                  > > > > > > * * 1 * B J.V.F.A.R.A.^.A.F.A.A.A.^.A.A.^.F.A.F.A.F.F.A.A.F.F.A.A.A.A.A.A.A.A.A.^.A.A.F.^.A.F.F.F.F.F.A.F.F.F.F.F.F.F.F.F.A.A.A.F.F.C.R.`.Y.[.`.F.F.A.F.F.F.F.F.A.A.F.F.F.F.F.F.F.F.F.A.F.F.F.F.F.F.F.F.F.F.B.R.e.A * > > > * > > > > > > > > >                                                                                                                                                                   ",
"                                                                                                  > > > > > > * > * > v ].C.F.A.F.A.A.A.A.A.A.F.F.F.A.F.A.A.F.A.A.F.A.F.F.F.F.A.A.F.A.A.^.F.A.A.A.A.F.F.A.F.F.F.F.F.F.F.F.F.F.A.F.F.F.F.F.A.A.C.F.!.k.` M r ) N.^.R.A.F..XR.A.F.F.F.F.F.A.F.F.F.F.A.F.F.F.F.F.F.F.A.A.A.B.`.8.4 * > > * > > > > > > > > > >                                                                                                                                                                     ",
"                                                                                              > > * > > > > > > > > * % 0.'.F.F.F.^.A.A.A.A.F.F.F.A.A.A.A.A.A.F.^.A.A.F.F.F.F.F.A.A.A.A.F.F.F.F.A.A.F.F.A.F.F.F.F.F.F.F.F.F.F.F.F.F.F.A.A.F.F.F.B.c.! % > * & q l.^.A.A.F.F.F.F.F.F.F.F.F.F.A.F.F.F.A.A.F.F.F..XF.F.F.C.`.e., * * * * > * > > > > > * > >                                                                                                                                                                       ",
"                                                                                            > > > > > > > > > > > * d * ; j..XF.A.H.A.A.A.F.A.F.A.F.A.F.F.A.A.F.A.F.F.F.A.A.A.F.F.F.A.A.A.F.A.F.F.F.F.F.F.F.F.F.F.F.F.F.F.F.F.F.F.F.A.F.R.F.F.F.XX! $ > p 2 > % 4 +.XXR.A.A.A.A.F.F.A.A.F.A.F.F.F.F.F.F.F.F.F.^.!.A.F.[.3.$ * > * * 1 > > > > > > > > >                                                                                                                                                                         ",
"                                                                                        > > > * > > > * > > > > * 1 > > * A v.F.F.R.A.A.A.^.F.F.A.A.F.F.F.A.F.F.A.F.F.F.F.F.F.F.F.F.F.F.F.F.F.F.A.F.F.F.R.F.F.F.F.F.F.^.F.F.F.F.F.F.A.F.F.A.F.A.r.> > * * > > > * s =.OXB.F.F.F.A.A.A.F.A.F.A.A.F.A.A.A.F.F.R.^.C.!./.:.$ > 2 * > * * > > > * * > > >                                                                                                                                                                           ",
"                                                                                        > > * > > > * > * > > > > > > > * % ~ '.R.F.A.F.A.A.^.A.F.F.^.A.F.F.A.F.R.F.A.A.A.F.F.F.F.F.A.A.A.F.F.F.F.F.F.F.A.A.F.F.F.C.F.^.F.F.F.F.F.F.A.A.F.F.F.`.X.$ 2 * > > > d d > % $.XXF.C.A.F.F.A.F.A.F.A.F.F.F.F.F.F.F.R.F.!.K._ $ > > > > * > > > > > > > > >                                                                                                                                                                             ",
"                                                                                      > > > > > > > > * > > > > > > > > > 1 @ @.`.F.^.F.A.A.A.A.F.A.F.^.F.A.A.C.F.A.F.F.F.F.A.F.F.A.A.F.F.F.F.F.F.F.F.F.F.F.F.F.F.F.F.F.F.F.F.F.F.F.F.F.F.A.F.XX{ * * > > > > > > > * & U `.C.F.F.F.F.A.F.F.F.F.A.F.A.A.F.F.F.`.c.D & d > > > * > * > * > > > > >                                                                                                                                                                               ",
"                                                                                    > > > > > > > > * > > > > > > > > > > > * v 3.!.F.A.A.^.^.A.A.A.F.F.F.A.F.A.F.A.F.F.F.F.F.F.F.A.F.F.F.F.F.F.F.A.F.F.F.F.F.F.A.F.F.F.F.F.A.F.F.F.F.F.F.A.F.).D & * > > > > > > > > p $ ^ |.^.F.F.A.A.F.F.A.F.A.F.A.A.A.Y.Y.7.e % > > > > * > > > > > > > > >                                                                                                                                                                                 ",
"                                                                                  > > > > > > * > > > > > > > > > > > * > > > d r x.^.A.F.R.A.^.F.F.F.A.A.F.A.F.A.F.F.F.F.F.F.A.F.^.A.F.F.F.F.F.F.A.F.F.F.F.F.F.A.F.F.F.C.F.F.F.F.F.A.F.F.F.C._.| % p p > > * * > > > > p % L oX/.C.F.F.F.F.F.A.F.F.A.F./.U._ % & * > > > > > > > > * > > > >                                                                                                                                                                                   ",
"                                                                                  > > > > > > > > > > > > > > * > > > > > > > * & D c.`.F.F.A.A.A.A.A.A.A.A.F.C.^.A.A.F.F.F.F.F.F.F.F.F.F.F.A.A.A.A.A.F.F.F.F.F.F.F.F.F.F.F.F.F.F.A.F.F.F.F.^.C.[.: * d * > * * > > > > > > % r oXF.F.F.F.A.F.F.F.A.C.^.oXD $ > p * > > > > * > > > > > > *                                                                                                                                                                                     ",
"                                                                                > > > > > * > > > > * * & % * > > > > > > * > * 2 % I `.F.F.F.A.C.A.A.F.A.A.F.F.A.F.F.F.F.A.F.F.A.F.F.F.F.A.A.A.A.A.A.F.F.F.F.F.F.F.A.F.F.F.F.F.A.A.F.A.F.F.A.A._.h.v % d > 2 > > > * * * * > % F k.^.F.A.H.F.F.C.F.XXk.: % * > > > > > > > > > > > * > >                                                                                                                                                                                       ",
"                                                                              > > > > > > > > > > > > > ~ +.N * > * > > > > > > * * % ..XXA.A.R.^.F.C.F.A.A.A.F.F.A.A.F.F.F.F.F.F.F.F.F.F.F.F.F.F.F.A.F.F.F.A.F.F.F.F.F.F.F.F.F.F.F.F.A.F.F.C.C.A.`.f.m * * 1 > > > * * * d 2 * $ L k.`.A.F.B.C.).l.+.% * d p * * * > > * > > > > > > >                                                                                                                                                                                         ",
"                                                                              > > > > > > > > > > > & ! I.R.K.v % 2 1 > > > > 1 1 * * $ >.^.A.A.A.^.F.F.F.F.A.A.F.A.F.F.F.F.A.A.F.F.A.F.F.F.F.F.A.F.F.F.F.F.F.F.F.A.F.F.F.F.A.A.F.F.A.^.F.F.F.F.!.R._.0.e * > > > * * * > * 2 g 1 * m v.XXP.F.[.x.F $ * d p p * * > > > > > > > > > >                                                                                                                                                                                           ",
"                                                                            * > > > > > > > > > > * % ).`.C./.K.l * * * > > > > * * h * e P.^.^.^.A.A.F.F.F.F.F.A.A.F.C.F.A.F.F.F.F.F.F.A.A.F.F.F.F.A.F.A.F.F.F.F.F.F.F.F.F.F.A.A.F.F.F.F.A.F.A.A.R.B._.q.; * 2 1 > > * > > > * * d % k g.`.K.&.v * 2 > * > * > > > > > > > > > > >                                                                                                                                                                                             ",
"                                                                          > > > > > > > > > > > > 7 4.`.!.A.R.^.c.n * > > > > > 2 * * * % @.`.!.A.F.F.A.A.F.A.F.C.F.A.F.F.F.F.F.F.F.F.A.A.F.^.F.A.F.F.F.F.F.F.F.F.A.F.F.F.F.F.F.F.F.F.A.A.A.R.A.A.F.C.C.XXf.: * > * * * * > > > > p g * : X./ % 1 * > > * > > > > > > > > > > >                                                                                                                                                                                                 ",
"                                                                          > > > > > * > > > > h % { R.B.A.A.R.R._.0., * 2 > > > > > > * p , P.R.A.A.A.F.A.A.A.F.A.A.C.F.F.F.F.F.F.F.F.A.F.F.A.F.F.F.F.F.F.F.F.F.F.F.F.F.F.F.F.F.F.A.A.A.A.F.A.F.F.A.A.A.A.^.k.6 * > * * * * > > > > * > * i * * * 1 * * > > > > > * > > > > >                                                                                                                                                                                                   ",
"                                                                        > > > > > > > > > > > % 6 `.^.R.F.F.F.R.F.XX0.: * > > > > > > > g % 8.A.A.F.A.A.A.A.A.F.A.A.F.F.F.F.F.F.A.F.F.A.A.A.F.F.F.F.F.F.F.F.C.F.F.F.R.A.A.A.A.F.F.A.A.A.A.F.A.A.A.A.A.A.A.C._.e.5 * h * * > > > * > > * > > * * p * > > > > > > > > > > > >                                                                                                                                                                                                     ",
"                                                                        * > > > > > > > > > > ; 0.R.F.F.F.F.F.^.A.A.XX>.& > > > > > > > > % +.`.F.F.F.A.A.A.A.F.F.R.F.A.F.F.F.F.F.F.A.F.F.A.F.F.F.A.A.A.A.F.F.F.F.F.F.R.F.F.A.F.F.A.A.F.A.F.R.A.^.F.F.A.A.A.F.R.=.4 * p d > > > > > > > > > > > > > > > > > > > > > > >                                                                                                                                                                                                         ",
"                                                                      > > > > > > d * > > > * R P.C.R.R.A.A.A.R.R.A.C.`.+.* > > 2 > > > > $ @.`.F.A.F.F.A.F.A.F.F.F.A.R.F.F.F.F.F.F.A.A.A.F.F.F.F.F.F.F.F.F.F.^.A.F.F.F.A.R.F.F.F.F.A.F.F.F.A.A.A.A.A.A.A.A.F.F.'.0.o * d > > > * > > > > > > > > > > > > > > > > > >                                                                                                                                                                                                           ",
"                                                                    > > > > > > > > > > * * = OX^.F.F.A.^.A.A.A.A.A.A.F._.-.$ 2 2 > > > p 9 N.^.F.A.A.A.A.F.F.F.A.A.F.F.F.A.F.F.F.F.F.F.A.F.F.F.F.A.F.F.F.A.F.F.A.A.F.F.F.F.F.F.A.A.A.F.F.F.F.A.A.A.A.A.F.A.A.A.C._.1.> * p 2 > > > > > > > > > > > > * > > > > > >                                                                                                                                                                                                             ",
"                                                                  > > > > > > > * > 2 * > 7 7.^.A.A.F.^.R.A.A.A.F.A.A.^.F.OX{ $ > d > * > :.`.F.A.A.A.A.A.F.F.A.A.F.F.F.F.F.F.F.A.A.A.F.F.F.F.F.F.A.F.F.F.A.F.R.F.F.F.A.F.F.F.F.F.A.A.F.F.A.F.F.F.F.F.A.F.A.A.A.F.R.[.{ * > > > * > > > > > > > > > > > > > > > >                                                                                                                                                                                                               ",
"                                                                  > > > > > > > > * * * % / '.F.A.F.F.F.A.A.A.A.A.^.A.A.A.^.P._ o % $ : X.OXF.F.A.A.A.A.F.^.F.A.A.F.F.F.F.F.F.F.A.A.A.F.^.A.R.A.F.A.F.F.F.F.F.F.F.F.A.F.F.F.F.F.F.F.F.F.F.F.F.F.A.F.A.A.A.^.C.A.F.R.`.0.* p > > > > > > > > > > > > > > > > >                                                                                                                                                                                                                   ",
"                                                                > > > * > > > * * > * * = P.^.A.A.A.A.A.A.A.A.A.F.F.^.A.^.C.F.).g.} :.K._.R.F.A.F.A.F.A.A.A.A.F.A.A.F.F.F.F.F.F.F.A.A.F.A.A.^.R.^.A.A.F.A.F.A.F.F.F.A.F.F.F.A.F.F.A.F.F.F.A.A.A.A.F.A.F.A.^.R.B.F.[.0.b * > > > > > > > > > > > > > > > > >                                                                                                                                                                                                                     ",
"                                                                > > > > > > > p > * 2 , &.[.F.A.A.A.A.A.A.A.A.A.F.A.^.A.A.A.F.F.^._.^.F.F.A.A.A.A.A.A.A.A.F.A.F.F.A.F.F.F.A.F.A.F.A.F.F.^.A.^.^.A.A.^.F.C.F.F.F.F.F.A.F.F.A.A.A.A.F.F.F.F.A.F.A.A.A.A.F.R.A.F.`.v.} : % > > > 2 > > > > > > > > > > > >                                                                                                                                                                                                                         ",
"                                                              > > > > > > > > * > > % H U.C.A.A.F.A.A.A.A.F.A.A.A.A.A.^.F.A.A.F.F.F.A.F.A.A.F.F.A.A.F.A.F.F.F.F.A.A.F.A.A.A.A.F.F.A.A.F.A.F.^.A.A.^.A.F.F.F.F.F.A.F.F.A.A.A.F.F.F.F.A.F.F.A.F.A.F.F.A.A.F.A.'.q.H % * > * > > > > > > > > > > > > >                                                                                                                                                                                                                             ",
"                                                              > > > > > > > > > > * $ P.^.F.A.A.A.A.F.A.A.A.A.F.A.A.A.F.F.A.R.F.F.F.F.A.^.A.F.^.F.A.F.A.F.A.F.A.A.F.A.A.F.F.A.F.A.A.A.A.^.A.A.A.R.F.^.R.!.F.F.F.F.R.A.F.F.F.A.A.F.F.A.F.F.F.F.F.F.F.F.^.`./.) : * > > > > d > > > > > > > >                                                                                                                                                                                                                                     ",
"                                                              > > > > > > > 1 1 2 : X._.F.A.A.A.A.A.A.A.A.A.A.A.A.A.F.F.A.A.A.F.F.A.A.A.A.A.A.F.A.F.F.F.F.F.A.F.F.F.F.F.F.R.F.A.A.F.F.A.A.^.A.A.F.`.'.k.f./.^.H..XF.A.F.F.A.F.F.F.A.F.F.A.A.A.R.R.R.C.[.f.S > * > > > > * > > > > > > > >                                                                                                                                                                                                                                       ",
"                                                              > > > > > > > * > % ! Y.F.A.F.A.F.F.A.A.F.^.F.F.A.A.A.F.F.F.A.F.A.A.F.A.F.C.A.A.F.R.^.R.F.F.F.F.F.F.F.F.A.F.F.F.F.A.A.F.F.A.F.R.A._.p.V , + { |.^.F.A.A.F.F.F.F.F.F.A.A.F.A.A.F.F.F.A.'.<., * 2 > d > > > > > > > > * > > >                                                                                                                                                                                                                                       ",
"                                                              > > > * * > > > > * ~ oXF.F.A.A.F.F.F.A.F.A.^.F.F.A.A.F.F.A.A.F.A.A.A.A.A.A.A.A.A.F.F.A.F.F.F.F.F.F.F.F.F.F.F.F.A.A.F.F.A.A.R.C.`.0.: * p h & B }.C.F.F.F.A.F.^.F.A.A.F.F.A.A.A.C.`.l.W o * > 2 > > > > > > > > > > > > >                                                                                                                                                                                                                                         ",
"                                                          > > > > > * * > > > > * W OXF.A.A.F.F.A.A.A.A.^.A.A.^.A.A.A.A.F.A.A.A.F.A.A.F.F.F.F.F.A.F.F.F.F.F.F.F.A.F.F.F.F.F.F.A.^.F.A.C.A.F.F.v.6 * 2 > h d % r p.^.F.F.A.R.F.F.F.F.F.F.F.A.^./.0.$ * > > > > > > > > > > > > > > > >                                                                                                                                                                                                                                           ",
"                                                        > > > > > > > > > > > > > $ #._.F.A.F.F.A.A.A.A.A.F.F.A.F.A.A.A.F.F.F.A.F.F.A.F.F.F.A.F.F.F.F.F.F.F.F.F.A.F.F.F.A.F.F.F.A.F.A.A.C.C.^.} y > > > > > * & e k.^.F.F.A.F.A.^.R.^.R.F._.P.! $ > > p > > > > > > > > > > > > > >                                                                                                                                                                                                                                             ",
"                                                    > > > > > > > > > > > > * * > * ; <.XXC.R.F.A.A.F.F.A.^.A.A.A.A.A.A.^.F.A.A.F.A.F.F.F.A.A.A.F.F.F.F.F.A.F.F.F.F.F.A.^.A.F.F.F.F.A.A.^.C.[.e * > > > > > * > * F n.^.R.A.F.A.^.R.F..XXX1.k % * > p * d > 2 > > > > > > > > > >                                                                                                                                                                                                                                               ",
"                                                  > > > > > * > > > > > > > > > > > * , f.`.R.^.^.F.F.F.F.F.A.F.A.A.F.F.A.F.F.F.F.F.A.F.F.F.F.A.F.F.A.A.A.F.F.F.F.F.F.A.A.F.F.A.A.F.A.A.A.B.[.Q * > > > > > > > > * b ].^.F.F.A.F.^._.oX( % p * > > > > > > > > > > > > > > >                                                                                                                                                                                                                                                   ",
"                                                > > > > > > > > > > > > > > > > > 2 2 * v K.`.F.^.R.A.A.A.A.A.F.A.F.F.A.F.A.A.F.A.F.F.F.A.F.F.F.F.A.F.A.F.F.F.F.F.A.F.F.F.F.A.A.F.F.A.F.F.F._.X.% > > > > > > > > 2 & H P.R.F.F.^.XXq.b % p * * > > > > > > > > > > > > > >                                                                                                                                                                                                                                                     ",
"                                              > * > > > * > > * > > * > > > > > 2 1 * 2 * b oXR.A.R.^.^.F.A.F.F.F.F.F.F.F.F.A.F.F.F.F.F.A.F.F.F.A.A.A.A.F.F.F.F.F.F.A.A.A.F.F.F.F.F.A.A.A.A.^.K.r % > > * > > * * * > & D  X^.R.J._ q % 1 p 2 2 > > > > > > > > > > > > >                                                                                                                                                                                                                                                       ",
"                                              > > > > > * > > > > > > > > > > > > * > * 2 = J /.^.A.A.A.F.R.F.A.A.A.F.F.A.A.A.A.F.F.F.F.F.A.R.F.F.F.F.F.F.F.F.F.F.F.A.F.F.F.F.F.F.F.F.F.F.F.F..Xk.7 * 1 > > > > d > * h & ! f.i.r % > d * > > d > > > > > > > > > > >                                                                                                                                                                                                                                                           ",
"                                            > > > > > > > > * > > * d d > > * > * * > > > > $ +.`.R.F.R.A.F.A.A.F.F.A.F.A.F.F.F.F.F.F.F.A.A.A.F.F.F.F.F.F.F.F.F.F.F.A.A.F.F.F.A.F.F.A.F.^.F.A.F.`.<., * 1 1 * > > > > * 2 & > $ * > > > > > * > > > > > > > > > > >                                                                                                                                                                                                                                                             ",
"                                            > > * > * > > > > * > d * p * * * > > * > * > * % : /.^.F.F.F.A.A.A.A.F.A.A.F.F.A.F.F.F.A.F.F.F.F.F.F.F.A.F.F.F.F.F.F.A.A.F.F.F.A.A.A.F.A.A.A.F.R.^.F._.q.$ * * > > > > p 1 * 2 * 2 d > > > * > > > > > > > > > > >                                                                                                                                                                                                                                                                 ",
"                                          > > > > > > > * > > > * O N r % > 2 * > > > > > * > $ <.!.F.F.A.A.^.A.A.A.F.F.F.A.F.F.F.F.A.A.F.F.F.C.A.F.F.A.F.F.A.F.F.F.F.R.F.F.F.F.F.F.F.A.F.A.F.F.R.F.[.{ % > 2 > * > * * > * * 2 > > > * > > > > > > > > > * >                                                                                                                                                                                                                                                                   ",
"                                        > > > * > > > > > > p > j e.XXR.{ & 2 * > > > > * * > $ &.C.C.A.A.A.F.F.F.A.A.^.A.A.A.A.C.R.R.F.F.F.F.C.F.F.A.F.F.F.A.F.F.F.F.F.F.A.F.F.F.F.A.F.F.A.^.A.F.A.Y.'.{ % 2 1 * 2 * > > > 1 * * > > > > > > > > > > > >                                                                                                                                                                                                                                                                       ",
"                                        > > > > > > * > > > > $ } OXB.F.XXO., % > > * * * p * : K.F.A.A.A.A.^.F.F.F.A.^.A.A.A.F.F.F.C.^.R.R.F.F.F.F.F.F.A.F.F.F.F.F.F.F.F.F.A.F.F.F.F.A.A.A.^.A.A.F.C.^.OX! * 2 * * > > > > * > > > > > > > > > > > > >                                                                                                                                                                                                                                                                         ",
"                                      > > > > > > > > > > > * e /.R.R.R.R.XX$.% * 3 > * * * : #.XXF.A.A.A.A.A.A.F.F.A.A.F.F.F.^.F.!.A._.`._.B.R.F.F.F.A.A.F.F.A.F.A.F.F.F.F.A.A.F.F.A.A.A.F.F.A.A.F.F.R.P.c.n p * * > > > > > > > > > > > > > > > >                                                                                                                                                                                                                                                                             ",
"                                      > > > > > > > > > 2 > > 0._.R.^.F.C.C.`.K.V = O % $ k $.[.^.F.A.A.^.A.^.F.A.C.F.A.A.F.F.^.C._.k.:.6.<.b.[.^.C.F.F.F.F.F.A.A.R.A.A.F.F.F.A.A.F.F.F.F.F.F.A.F.F.A.R.OX9.$ 1 * > > > * * > > > > > > > > > > >                                                                                                                                                                                                                                                                               ",
"                                    > > > > > > > > > > > % E #XH.R.F.^.^.^.R.`.K.d.} C 0.}./.F.!.A.A.A.F.^.^.F.A.F.F.F.A.R.R.`.`.} 4 $ % % 9 <._.F.A.R.F.A.A.A.F.F.A.F.F.A.A.F.A.A.F.A.A.A.A.A.C.^.`.K.C ; * * > > > > * > > > > > > > > > > >                                                                                                                                                                                                                                                                                 ",
"                                  * > > > > > > > > > > p 9 s.^.F.R.R.F.F.A.F.B.B.R.XX`.`.F.V.R.F.F.A.^.A.A.A.C.A.A.^.A.A.R.F.U.! % > h * 2 * o 2.XXC.^.F.F.A.A.F.A.A.A.A.F.A.A.F.A.F.A.H.A.A.C.^.OX+.$ * * * > * > > > > > > > > > > > > >                                                                                                                                                                                                                                                                                     ",
"                                  > > > > > > > > > * * % =._.F.^.^.F.F.F.R.F.R.C.F.F.F.A.A.F.F.F.F.A.A.A.A.A.F.A.A.A.F.^.A.A.K.5 d p 2 * * p * j =.[.A.A..XA.^.F.F.F.F.A.A.A.A.F.F.A.^..X^..X`.8.7 % > * * * > > > > > > > > > > > > >                                                                                                                                                                                                                                                                                         ",
"                                > > > > > > > * * > > * t XX^.^.^.^.A.A.A.A.R.F.F.R.A.^.F.F.A.F.F.A.^.F.A.A.A.A.F.F.A.A.^.A.F.U.& * * > > p * * > = <.OXR.A.A.A.^.R.F.F.F.A.F.F.F.A.A.C.^.[.g.H $ % > > * > > > > > > > > * > > >                                                                                                                                                                                                                                                                                               ",
"                                > > > > > > > * > > 2 : 5.C.F.^.A.^.A.A.F.A.F.F.F.R.A.F.F.F.A.F.F.^.A.A.F.A.^.A.A.A.A.F.A.R.^.l., p > * * * > > 2 > , q.XXF.A.A.^.A.A.F.R.F.A.A.A.F.F.'.P._ j * * > > > > > > > > > > > > > >                                                                                                                                                                                                                                                                                                   ",
"                              > > > > > > > > * > > * ( /.F.A.R.A.A.A.A.F.^.F.F.F.A.F.F.F.A.A.F.F.F.F.F.A.F.A.F.F.A.A.R.F.A.C.}.9 > > > * * * * * > * $ g.XXF.^.A.A.^.A.A.C.R.^.F.^.`.#.o $ * * * > > d > > > > > > > > > > *                                                                                                                                                                                                                                                                                                   ",
"                            > > > > * > > > > * 2 * 6 /.R.F.A.F.A.F.A.F.A.A.F.F.A.F.F.A.A.A.A.F.F.F.F.F.^.A.^.A.C.A.A.^.^.R.!.[.>.: > * > * > * > > > * 6 z..XF.F.A.A.^.C.C.R.^.[.2.9 > * > > > > > > > > > > > > > > > > >                                                                                                                                                                                                                                                                                                     ",
"                            > > > > > > > > * * > % _ _.C.A.A.A.A.F.F.A.A.F.F.F.A.F.A.F.F.F.F.F.F.A.A.A.R.F.A.F.F.A.A.A.A.^.A.F.Y.) * > > * > > > > > > % e v.^.F.A.^.^.A.A.[.k.m $ * * * * * > > > > > > > > > > > > > >                                                                                                                                                                                                                                                                                                       ",
"                          * > > > > > > > > 2 > % N P.R.A.^.F.F.F.A.F.F.A.F.F.F.F.F.F.F.A.A.F.F.F.F.F.A.F.A.F.A.A.R.A.A.F.^.F.F.A.U.F % > * > > > > > > 2 & Q U.^.A.^.!.`.oX) , i > * > > * > > > > > > > > > > > > > >                                                                                                                                                                                                                                                                                                         ",
"                          > > > > > > > > > > > : s.^.C.A.F.F.F.A.F.F.F.F.F.F.F.R.A.A.F.^.F.F.F.F.F.F.F.A.^.F.A.A.F.^.A.F.A.A.A.A.R.N.F % > > > > > > > p > & ) K.`.R./.,.; & * > > > > > > > > > > > > > > > * > >                                                                                                                                                                                                                                                                                                             ",
"                        > > > > > > > > > * 2 % ! /.F.A.A.A.F.F.F.F.F.F.F.F.A.F.F.A.F.F.F.F.F.F.F.F.F.F.F.F.F.A.A.F.A.A.^.A.F.^.F.F.^.`.J & 2 > > > > > * > * $ ..].:.m & * * * > > > > * > > > > > > > > > > > >                                                                                                                                                                                                                                                                                                               ",
"                        * > > > > > * * > * & > I.^.F.A.F.R.A.A.A.F.F.F.F.F.F.F.F.F.F.F.F.F.F.F.A.F.F.A.A.F.F.A.F.F.A.A.F.A.F.R.^.F.F.XXn.J > 2 > 2 2 > * * p p $ x % * * * * > > * > > > > * * > > > > > > >                                                                                                                                                                                                                                                                                                                   ",
"                      > * > > > > > > > * * ; R '.A.F.F.F.F.A.F.F.F.F.F.F.F.F.A.F.F.F.F.F.A.F.F.F.F.F.F.F.F.F.A.F.F.F.A.^.A.R.F.A.C.A.F.`.v.0 & 2 2 > > * p * p > * * * * * * > > > > * > > * > > > > > >                                                                                                                                                                                                                                                                                                                       ",
"                    > * > > > > > > > * > * P U.P.F.F.A.F.F.F.A.F.A.F.F.F.F.F.A.F.F.A.F.F.F.F.F.F.F.F.A.F.F.F.F.F.F.F.A.A.A.^.F.F.!.^.^.A.^.i.A & d > * > > * 1 1 * > * > 1 > > > > > > > > > > > * > >                                                                                                                                                                                                                                                                                                                         ",
"                    > * > * > > > > > * * $ g.`.R.F.A.A.F.F.F.F.F.F.F.A.F.F.A.F.A.A.A.F.R.F.F.F.F.F.F.F.F.F.A.F.F.F.A.A.A.^.R.F.A.A.F.F.^.B..Xf., * > * > > > > * * * * > 1 > > > > > > > > * > >                                                                                                                                                                                                                                                                                                                               ",
"                    > > > > > > > * * > & H _.R.R.A.A.F.A.A.A.F.F.F.F.F.A.F.F.F.R.A.F.F.F.F.F.R.F.F.F.A.F.F.F.F.A.A.A.A.F.F.F.F.A.F.A.F.F.R.B.OX/ * * > > > > > > > * > > * > > > > > > > > > >                                                                                                                                                                                                                                                                                                                                 ",
"                  * > > > > > > > > > * & f.`.^.^.F.F.C.A.F.F.F.A.A.F.F.F.F.F.F.F.F.F.F.F.F.F.F.F.F.F.F.F.F.F.F.F.A.A.A.A.A.A.A.A.A.A..XR.R.[.}.7 * > > > > > > > > > > > > > > > > > > > >                                                                                                                                                                                                                                                                                                                                     ",
"                  > > > > > > > > * > % w ].^.F.A.A.A.A.A.A.A.F.F.F.F.A.F.F.F.F.F.F.F.F.F.F.A.F.F.F.F.F.F.A.F.F.F.F.A.A.A.A.A.F.F.A.F.R.).J.' % * > * > > > > > > > > > > > * * > > > > >                                                                                                                                                                                                                                                                                                                                       ",
"                * > > > > > > > > 2 * 9 0._.A.^.F.F.F.F.F.F.F.F.F.F.F.F.A.F.F.F.F.A.A.F.F.F.F.F.F.F.A.A.A.A.F.F.A.F.A.A.A.A.A.F.R.F._.oX| 6 & * > > > > > > > > > > > > > > > > > > >                                                                                                                                                                                                                                                                                                                                           ",
"                > > > > > > > > * > $ 9.XX^.A.A.A.A.F.C.F.A.F.F.F.F.F.F.C.F.F.F.F.A.F.F.F.F.F.F.F.F.A.A.A.F.A.F.F.F.F.A.A.^.^.^.^.K.,.e % * * * > > > > > > > > > > > > > > > * >                                                                                                                                                                                                                                                                                                                                               ",
"              > > > > * > > > > > > r _..XA.A.A.F.F.A.F.A.F.A.A.F.F.F.F.F.A.F.F.F.F.A.A.A.A.F.A.A.A.F.F.F.F.F.A.A.F.A.^.^.A.^.[.k.J o * 2 > > > > > > > > > > > > > > * > > >                                                                                                                                                                                                                                                                                                                                                   ",
"              > > > > > > * > > 2 & } OXF.^.A.A.A.A.F.F.A.A.F.F.F.F.F.A.F.A.^.F.F.F.A.F.F.F.F.F.R.F.F.F.F.F.A.A.F.F.A.A.^.[.l.! $ * > > p 2 > > > > > > > > > > > > > >                                                                                                                                                                                                                                                                                                                                                         ",
"              > > > > > > * > > * $ _.^.F.^.A.^.A.^.A.A.F.F.F.F.F.F.A.F.F.A.A.F.F.A.F.F.F.F.F.A.F.F.A.F.F.F.A.F.F.F.C.XX]...4 % > > > > > > * > > > > > > > > > >                                                                                                                                                                                                                                                                                                                                                               ",
"            > > > > > > > > > > * ~ [.F.^.^.A.A.A.A.A.A.A.A.F.F.F.A.A.F.A.A.F.F.F.A.A.F.F.F.F.A.F.F.F.F.A.F.R.F.H.`.J.6.6 $ * > > > > > > > > > > > > > > > > >                                                                                                                                                                                                                                                                                                                                                                 ",
"            > > > > > > > > > * $ i._.F.^.A.A.A.A.A.^.F.A.A.A.F.A.A.A.F.A.F.F.F.A.A.A.F.F.!.A.A.F.F.A.A.R.F.C..X[.9.A i * p * > > > > > > > > > > > > > > > >                                                                                                                                                                                                                                                                                                                                                                   ",
"          > > > > > > > > > 2 * 9 XXR.R.A.F.A.A.^.A.A.F.F.F.F.F.A.A.A.A.A.F.A.A.A.F.A.A.C.^.C.C.A.F.F.^.F.R.].q.C $ * > > 2 > > > * d > > > > > > > > > > >                                                                                                                                                                                                                                                                                                                                                                     ",
"          > > > * > > > > > * & @._.F.H.F.F.F.A.F.F.F.F.A.A.F.F.A.F.F.F.A.A.F.F.A.F.F.A.^.C.C.F.F.A.C.B._.P.~ s * > > > > > > > > > > > > * > > > > * >                                                                                                                                                                                                                                                                                                                                                                         ",
"          > > > > * > > > * * , `.^.F.F.A.A.F.A.F.F.F.F.A.A.F.F.A.A.F.A.A.F.C.A.F.F.F.F.C.F.A.!.C.F.!.l.X.j * * > d d > > > > > > > > > > > > > > > >                                                                                                                                                                                                                                                                                                                                                                           ",
"          > > > > > > > * 1 * ~ [.B.F.F.^.F.F.F.A.A.A.F.F.F.F.F.A.A.F.F.F.F.A.A.F.F.A.F.A.A.C.F._.`.$.r O * > > > > > > > > > > > > > > > > > > *                                                                                                                                                                                                                                                                                                                                                                               ",
"          > > > > > > * * > $ i.XXR.R.A.A.F.A.A.F.A.A.F.F.F.F.A.A.F.F.F.A.C.R.F.A.F.F.R.R.R.C.P.#.m $ * * > > > > > > > > > > > > > > > > > *                                                                                                                                                                                                                                                                                                                                                                                   ",
"          > > > > > > * * > 6 q.R.R.F.F.A.A.A.A.F.A.A.A.F.F.^.A.A.F.A.A.F.A.R.F.A.R.F.R./.`.p.Q % * 2 * > > * > > > > > * > > > > > > > >                                                                                                                                                                                                                                                                                                                                                                                       ",
"        > > > > > > > * * 2 $ `.R.R.A.F.A.A.F.F.A.A.F.F.F.^.^.^.A.^.A.F.F.A.A.F.F.F.F.XXf.) : * 2 > > > * * > > > > > > > > > > > > > >                                                                                                                                                                                                                                                                                                                                                                                         ",
"        > > > > > > > > * 2 ; f.R.F.A.F.A.F.A.F.A.A.F.^.F.F.^.^.^.^.^.A.A.F.F.C.R.R.b.^ : & > > * > > * > > > > > > > > > > > > > >                                                                                                                                                                                                                                                                                                                                                                                             ",
"          > > > > > > > > 2 % i.R.F.A.A.A.A.F.F.A.A.^.A.F.F.A.A.^.A.A.H.^.R.F.^.{.#.7 > > > > * > > > > > > > > > > > > > > > >                                                                                                                                                                                                                                                                                                                                                                                                 ",
"          > > > > > > > > * % 5.XXF.F.A.F.A.A.A.A.A.^.F.A.C.F.A.A.A.A.^.F.[.K.&.v % * * * * > > * > > > > > > * > > > > > >                                                                                                                                                                                                                                                                                                                                                                                                     ",
"          > > * > > > > * > * { oXF.^.A.F.F.F.A.^.A.C.A.A.C.A.A.A.F.^._.].i.0 ; * > * > * * > > > > > > > > > > > > > > >                                                                                                                                                                                                                                                                                                                                                                                                       ",
"          > > > > > > * > * * : n.P.F.F.F.F.F.^.A.A.A.A.R.R.F.A.F._.K.&.r $ * p > > > > > > > > > > > > > > > > > >                                                                                                                                                                                                                                                                                                                                                                                                             ",
"          > > > > > > > > > > * D I.F.F.R.F.F.F.A.^.F.A.R.A.^._.U.*.4 % * * * * > > > > > > > > > > > > > > > > >                                                                                                                                                                                                                                                                                                                                                                                                               ",
"          > > > > > * > > * > > $ Q |.'.P.B.F.A.A.A.A.R._.OXI.X., a > > * 1 * > > > > > > > > > > > > > > > >                                                                                                                                                                                                                                                                                                                                                                                                                   ",
"            > > > > * * > > * * 2 * , ] d.].oX[.R.XXP.i.4.A ; % * > > > > > > > > > > > > > > > > > > * *                                                                                                                                                                                                                                                                                                                                                                                                                       ",
"            > > > > > * > > > > > > * % , 7 ^ ) _ A 6 , & * * 1 d * > > * > > > > > > > > > > * > > >                                                                                                                                                                                                                                                                                                                                                                                                                           ",
"            > > * > > > > > > > > > > > p * * % * > * > * * * > d > > > > > > > > > > > > > > > >                                                                                                                                                                                                                                                                                                                                                                                                                               ",
"              > > > > > > > > > * > 2 > * > > 2 > > > * > > * 2 * > > * > > > > > > > > > * > >                                                                                                                                                                                                                                                                                                                                                                                                                                 ",
"                > > > > > > > > > > > > > > 2 p * > > > > > > > > * > * > > > > > > > > > >                                                                                                                                                                                                                                                                                                                                                                                                                                     ",
"                  > > > > > > > > > > > * 2 * > p > > > > > > > * > > * > > > > > > > >                                                                                                                                                                                                                                                                                                                                                                                                                                         ",
"                  > > > > > > > > > > > > > > > > > > > > * > > > > * > > > > > > >                                                                                                                                                                                                                                                                                                                                                                                                                                             ",
"                      > > * > > > > > > > * > > > > * > * > > * * * > > > > >                                                                                                                                                                                                                                                                                                                                                                                                                                                   ",
"                        > > > > > * > > > * > > > > > > > * * > > > > > >                                                                                                                                                                                                                                                                                                                                                                                                                                                       ",
"                            > > > > > > > > > > > > > > > > > > > > > >                                                                                                                                                                                                                                                                                                                                                                                                                                                         ",
"                                  > > > > > > > > > > * * > > > >                                                                                                                                                                                                                                                                                                                                                                                                                                                               ",
"                                      > > > > > > > * > >                                                                                                                                                                                                                                                                                                                                                                                                                                                                       ",
"                                                                                                                                                                                                                                                                                                                                                                                                                                                                                                                                ",
"                                                                                                                                                                                                                                                                                                                                                                                                                                                                                                                                ",
"                                                                                                                                                                                                                                                                                                                                                                                                                                                                                                                                ",
"                                                                                                                                                                                                                                                                                                                                                                                                                                                                                                                                "
};
